!!!!SEGMENT: pl-cz--iii-457--001-003_kuci-mateusz--symfonia-es-presto.krn
!!!cenid: 17xx:947
!!!COM: Kuci, Mateusz
!!!COM-rismID: pe30017582
!!!CDT:
!!!CNT:
!!!OPR: Symfonia Es
!!!OTL: Presto
!!!OMV: 003
!!!PDT:
!!!AGN: Secular
!!!YEC: Copyright 2022 Narodowy Instytut Fryderyka Chopina (https://polishscores.org)
!!!YEM: License CC-BY-4.0 (https://creativecommons.org/licenses/by/4.0)
!!!SMS-siglum: PL-CZ
!!!SMS-shelfmark: III-457
!!!SMS-shelfwork: 001-003 M
!!!SMS-variant:
!!!SMS-altvar:
!!!NIFC-rismSourceID: 300000669
!!!NIFC-rismChildID: 300000669
!!!NIFC-islandoraID: pl-cz:38585
!!!URL-pdf-islandora: https://repozytorium.nifc.pl/islandora/object/pl-cz%3A38585/datastream/PDF/view
!!!URL-scan: https://polish.musicsources.pl/pl/lokalizacje/galeria/rekopisy/6935/1 @EN{Scan on Polish Music Sources Website} @PL{Skany w portalu Dziedzictwo Muzyki Polskiej w otwartym dostępie}
!!!IIIF:
!!!ONB-nifc: UWAGA: części Symfonii: Allegro, Andantino, Presto
!!!AIN: 1 bass 2 cor 1 viola 2 violn
!!!key: E-
**kern	**dynam	**kern	**dynam	**kern	**dynam	**kern	**dynam	**kern	**dynam	**kern	**dynam
*part6	*	*part5	*	*part4	*	*part3	*	*part2	*	*part1	*
*staff6	*	*staff5	*	*staff4	*	*staff3	*	*staff2	*	*staff1	*
*Ibass	*	*Iviola	*	*Ivioln	*	*Ivioln	*	*Icor	*	*Icor	*
*I"Basso	*	*I"Alto Viola	*	*I"Violino Secondo	*	*I"Violino Primo	*	*I"Corno Secundo in Dis	*	*I"Corno Primo in Dis	*
*I'bc	*	*I'a-vla	*	*I'vl 2	*	*I'vl 1	*	*I'cor 2 in Es	*	*I'cor 1 in Es	*
*ICstr	*	*ICstr	*	*ICstr	*	*ICstr	*	*ICbras	*	*ICbras	*
*IC	*	*	*	*	*	*	*	*	*	*	*
*clefF4	*	*clefC3	*	*clefG2	*	*clefG2	*	*clefG2	*	*clefG2	*
*	*	*	*	*	*	*	*	*ITrd5c9	*	*ITrd5c9	*
*k[b-e-a-]	*	*k[b-e-a-]	*	*k[b-e-a-]	*	*k[b-e-a-]	*	*k[b-e-a-]	*	*k[b-e-a-]	*
*E-:	*	*E-:	*	*E-:	*	*E-:	*	*E-:	*	*E-:	*
*M6/8	*	*M6/8	*	*M6/8	*	*M6/8	*	*M6/8	*	*M6/8	*
*2\right	*	*2\right	*	*2\right	*	*2\right	*	*2\right	*	*2\right	*
*4\right	*	*4\right	*	*4\right	*	*4\right	*	*4\right	*	*4\right	*
*8\right	*	*8\right	*	*8\right	*	*8\right	*	*8\right	*	*8\right	*
=1	=1	=1	=1	=1	=1	=1	=1	=1	=1	=1	=1
!	!	!	!	!	!	!	!	!LO:TX:a:t=8	!	!	!
!LO:TX:a:t=Presto	!	!LO:TX:a:t=Presto	!	!LO:TX:a:t=Presto	!	!LO:TX:a:t=Presto	!	!LO:TX:a:t=Presto	!	!LO:TX:a:t=Presto	!
4.E-\	p	8e-\L	p	4.e-/	p	4.e-/	p	2.r	.	2.r	.
.	.	8e-\	.	.	.	.	.	.	.	.	.
.	.	8e-\J	.	.	.	.	.	.	.	.	.
*	*	*tremolo	*	*	*	*	*	*	*	*	*
.	.	.	.	.	.	8qqg/	.	.	.	.	.
4r	.	8e-\L	.	4r	.	8f/L	.	.	.	.	.
.	.	8e-\	.	.	.	8e-/	.	.	.	.	.
8r	.	8e-\J	.	8r	.	8f/J	.	.	.	.	.
=2	=2	=2	=2	=2	=2	=2	=2	=2	=2	=2	=2
!	!	!	!	!	!	!LO:N:vis=4	!	!	!	!	!
4.E-\	.	8e-\L	.	4.e-/	.	4.g/	.	2.r	.	2.r	.
.	.	8e-\	.	.	.	.	.	.	.	.	.
.	.	8e-\J	.	.	.	.	.	.	.	.	.
.	.	.	.	8qqg/	.	8qqb-/	.	.	.	.	.
4.r	.	8e-\L	.	8f/L	.	8a-/L	.	.	.	.	.
.	.	8e-\	.	8e-/	.	8g/	.	.	.	.	.
.	.	8e-\J	.	8f/J	.	8a-/J	.	.	.	.	.
=3	=3	=3	=3	=3	=3	=3	=3	=3	=3	=3	=3
4.E-\	.	8e-\L	.	4g/	.	4b-\	.	2.r	.	2.r	.
.	.	8e-\	.	.	.	.	.	.	.	.	.
.	.	8e-\J	.	8e-/	.	8g/	.	.	.	.	.
4.r	.	8e-\L	.	8cc\L	.	8ee-\L	.	.	.	.	.
.	.	8e-\	.	8b-\	.	8dd\	.	.	.	.	.
.	.	8e-\J	.	8a-\J	.	8cc\J	.	.	.	.	.
=4	=4	=4	=4	=4	=4	=4	=4	=4	=4	=4	=4
4.BB-/	.	8B-/L	.	4g/	.	4b-\	.	2.r	.	2.r	.
.	.	8B-/	.	.	.	.	.	.	.	.	.
*	*	*Xtremolo	*	*	*	*	*	*	*	*	*
.	.	8B-/J	.	8fT/	.	8a-/	.	.	.	.	.
4E-\	.	8e-\L	.	4e-/	.	4g/	.	.	.	.	.
.	.	8g\	.	.	.	.	.	.	.	.	.
8r	.	8e-\J	.	8r	.	8r	.	.	.	.	.
!	!	!	!	!	!	!LO:LB:g=original	!	!	!	!	!
=5	=5	=5	=5	=5	=5	=5	=5	=5	=5	=5	=5
*	*	*tremolo	*	*	*	*	*	*	*	*	*
4.B-\	.	8B-/L	.	4.d/	.	4.f/	.	2.r	.	2.r	.
.	.	8B-/	.	.	.	.	.	.	.	.	.
.	.	8B-/J	.	.	.	.	.	.	.	.	.
4.BB-/	.	8b-\L	.	8d/L	.	8f/L	.	.	.	.	.
.	.	8b-\	.	8e-/	.	8g/	.	.	.	.	.
.	.	8b-\J	.	8f/J	.	8a-/J	.	.	.	.	.
!	!	!	!	!LO:LB:g=original	!	!	!	!	!	!	!
=6	=6	=6	=6	=6	=6	=6	=6	=6	=6	=6	=6
4.E-\	.	8e-\L	.	4.e-/	.	4.g/	.	2.r	.	2.r	.
.	.	8e-\	.	.	.	.	.	.	.	.	.
.	.	8e-\J	.	.	.	.	.	.	.	.	.
4.EE-/	.	8E-/L	.	8e-/L	.	8g/L	.	.	.	.	.
.	.	8E-/	.	8f/	.	8a-/	.	.	.	.	.
.	.	8E-/J	.	8g/J	.	8b-/J	.	.	.	.	.
=7	=7	=7	=7	=7	=7	=7	=7	=7	=7	=7	=7
.	.	.	.	8qqa-/	.	8qqcc/	.	.	.	.	.
4.E-\	.	8e-\L	.	8g/L	.	8b-\L	.	2.r	.	2.r	.
.	.	8e-\	.	8f/	.	8a-\	.	.	.	.	.
.	.	8e-\J	.	8e-/J	.	8g\J	.	.	.	.	.
.	.	.	.	8qqa-/	.	8qqcc/	.	.	.	.	.
4.EE-/	.	8e-\L	.	8g/L	.	8b-\L	.	.	.	.	.
.	.	8e-\	.	8f/	.	8a-\	.	.	.	.	.
.	.	8e-\J	.	8e-/J	.	8g\J	.	.	.	.	.
=8	=8	=8	=8	=8	=8	=8	=8	=8	=8	=8	=8
!LO:N:vis=4.	!	!	!	!	!	!	!	!	!	!	!
4BB-/	.	8b-\L	.	4e-/	.	4g/	.	2.r	.	2.r	.
.	.	8b-\	.	.	.	.	.	.	.	.	.
8B-\	.	8b-\J	.	8d/	.	8f/	.	.	.	.	.
8A-X\L	.	8B-/L	.	4d/	.	4f/	.	.	.	.	.
!	!	!LO:LB:g=original	!	!	!	!	!	!	!	!	!
8G\	.	8B-/	.	.	.	.	.	.	.	.	.
8F\J	.	8B-/J	.	8r	.	8r	.	.	.	.	.
=9	=9	=9	=9	=9	=9	=9	=9	=9	=9	=9	=9
*tremolo	*	*	*	*	*	*	*	*	*	*	*
!	!LO:DY:b:t=for	!	!LO:DY:b:t=for	!	!LO:DY:b:t=for	!	!LO:DY:b:t=for	!	!LO:DY:a	!LO:TX:t=P:problem=2\right&colon; global	!
!	!	!	!	!	!	!	!	!	!LO:DY:b:t=for	!	!
*	*	*	*	*	*	*	*	*	*	*2\right	*
!	!	!	!	!	!	!	!	!	!	!	!LO:DY:b:t=for
8E-\L	f	8e-\L	f	4.B-/ 4.g	f	4.g/ 4.ee-	f	2.E-/	f	[2.e-\	f
8E-\	.	8e-\	.	.	.	.	.	.	.	.	.
8E-\J	.	8e-\J	.	.	.	.	.	.	.	.	.
.	.	.	.	.	.	8qqgg/	.	.	.	.	.
8E-\L	.	8e-\L	.	8a-/L	.	8ff\L	.	.	.	.	.
8E-\	.	8e-\	.	8g/	.	8ee-\	.	.	.	.	.
8E-\J	.	8e-\J	.	8a-/J	.	8ff\J	.	.	.	.	.
!LO:LB:g=original	!	!	!	!	!	!	!	!	!	!	!
=10	=10	=10	=10	=10	=10	=10	=10	=10	=10	=10	=10
!LO:TX:t=P:problem=2\right&colon; global	!	!	!	!	!	!LO:N:vis=4	!	!	!	!	!
8E-\L	.	8e-\L	.	4.g/ 4.ee-	.	4.gg\	.	2.E-/	.	2.e-\]	.
8E-\	.	8e-\	.	.	.	.	.	.	.	.	.
8E-\	.	8e-\J	.	.	.	.	.	.	.	.	.
.	.	.	.	8qqgg/	.	8qqbb-/	.	.	.	.	.
8E-\	.	8e-\L	.	8ff\L	.	8aa-\L	.	.	.	.	.
8E-\	.	8e-\	.	8ee-\	.	8gg\	.	.	.	.	.
8E-\J	.	8e-\J	.	8ff\J	.	8aa-\J	.	.	.	.	.
=11	=11	=11	=11	=11	=11	=11	=11	=11	=11	=11	=11
8E-\L	.	8e-\L	.	8gg\L	.	8bb-\L	.	2.E-/	.	2.e-\	.
8E-\	.	8e-\	.	8ee-\	.	8gg\	.	.	.	.	.
8E-\	.	8e-\	.	8b-\J	.	8ee-\J	.	.	.	.	.
8E-\	.	8e-\	.	8g/L	.	8b-/L	.	.	.	.	.
8E-\	.	8e-\	.	8e-/	.	8g/	.	.	.	.	.
*Xtremolo	*	*Xtremolo	*	*	*	*	*	*	*	*	*
8E-\J	.	8e-\J	.	8B-/J	.	8e-/J	.	.	.	.	.
=12	=12	=12	=12	=12	=12	=12	=12	=12	=12	=12	=12
8BB-/L	.	8B-/L	.	4g/	.	4b-/	.	2.E-/	.	2e-\	.
8C/	.	8c/	.	.	.	.	.	.	.	.	.
8D/J	.	8d/J	.	8fT/	.	8a-T/	.	.	.	.	.
8E-\L	.	8e-\L	.	16e-/LL	.	4g/	.	.	.	.	.
.	.	.	.	16g/	.	.	.	.	.	.	.
8B-\	.	8b-\	.	16b-/	.	.	.	.	.	4r	.
.	.	.	.	16g/	.	.	.	.	.	.	.
8G\J	.	8g\J	.	16f/	.	8r	.	.	.	.	.
!	!	!	!	!	!	!LO:LB:g=original	!	!	!	!	!
.	.	.	.	16e-/JJ	.	.	.	.	.	.	.
!	!	!	!	!LO:LB:g=original	!	!	!	!	!	!	!
=13	=13	=13	=13	=13	=13	=13	=13	=13	=13	=13	=13
*	*	*	*	*tremolo	*	*	*	*	*	*	*
!	!	!	!	!LO:TX:t=P:problem=2\right&colon; global	!	!	!	!	!	!	!
8A-X\L	.	8a-X\L	.	16cc\LL	.	4.A-/ 4.e- 4.cc	.	2.E-/	.	2.e-\	.
.	.	.	.	16cc\	.	.	.	.	.	.	.
8E-\	.	8e-\	.	16cc\	.	.	.	.	.	.	.
.	.	.	.	16cc\	.	.	.	.	.	.	.
8C\J	.	8c\J	.	16cc\	.	.	.	.	.	.	.
.	.	.	.	16cc\	.	.	.	.	.	.	.
4.AA-/	.	4.A-/	.	16cc\	.	16aa-\LL	.	.	.	.	.
.	.	.	.	16cc\	.	16gg\	.	.	.	.	.
.	.	.	.	16cc\	.	16ff\	.	.	.	.	.
.	.	.	.	16cc\	.	16ee-\	.	.	.	.	.
.	.	.	.	16cc\	.	16dd\	.	.	.	.	.
.	.	.	.	16cc\JJ	.	16cc\JJ	.	.	.	.	.
=14	=14	=14	=14	=14	=14	=14	=14	=14	=14	=14	=14
8GG/L	.	8G/L	.	16b-X\LL	.	4.e-/ 4.g 4.b-	.	2.E-/	.	2.e-\	.
.	.	.	.	16b-\	.	.	.	.	.	.	.
8BB-/	.	8B-/	.	16b-\	.	.	.	.	.	.	.
.	.	.	.	16b-\	.	.	.	.	.	.	.
8E-/J	.	8e-/J	.	16b-\	.	.	.	.	.	.	.
.	.	.	.	16b-\	.	.	.	.	.	.	.
4.G\	.	4.g\	.	16b-\	.	16gg\LL	.	.	.	.	.
.	.	.	.	16b-\	.	16ff\	.	.	.	.	.
.	.	.	.	16b-\	.	16ee-\	.	.	.	.	.
.	.	.	.	16b-\	.	16dd\	.	.	.	.	.
.	.	.	.	16b-\	.	16cc\	.	.	.	.	.
.	.	.	.	16b-\JJ	.	16b-\JJ	.	.	.	.	.
=15	=15	=15	=15	=15	=15	=15	=15	=15	=15	=15	=15
8F\L	.	8f\L	.	16a-X/LL	.	4.a-X/	.	2.B-/	.	2.f\	.
.	.	.	.	16a-/	.	.	.	.	.	.	.
8D\	.	8d\	.	16a-/	.	.	.	.	.	.	.
.	.	.	.	16a-/	.	.	.	.	.	.	.
8C\J	.	8c\J	.	16a-/	.	.	.	.	.	.	.
.	.	.	.	16a-/	.	.	.	.	.	.	.
4BB-/	.	4B-/	.	16a-/	.	16ff\LL	.	.	.	.	.
.	.	.	.	16a-/	.	16ee-\	.	.	.	.	.
.	.	.	.	16a-/	.	16dd\	.	.	.	.	.
.	.	.	.	16a-/	.	16cc\	.	.	.	.	.
8D/	.	8d/	.	16a-/	.	16b-\	.	.	.	.	.
.	.	.	.	16a-/JJ	.	16a-\JJ	.	.	.	.	.
=16	=16	=16	=16	=16	=16	=16	=16	=16	=16	=16	=16
4.E-\	.	4.e-\	.	16g/LL	.	16g\LL	.	4.E-/	.	4e-\	.
.	.	.	.	16g/	.	16ee-\	.	.	.	.	.
.	.	.	.	16g/	.	16ee-\	.	.	.	.	.
.	.	.	.	16g/	.	16ee-\	.	.	.	.	.
.	.	.	.	16g/	.	16ee-\	.	.	.	8r	.
.	.	.	.	16g/	.	16ee-\JJ	.	.	.	.	.
*	*	*	*	*	*	*tremolo	*	*	*	*	*
4.G\	.	4.g\	.	16g/	.	16ee-\LL	.	4.r	.	4.r	.
!	!	!	!	!	!	!	!	!	!	!LO:LB:g=original	!
.	.	.	.	16g/	.	16ee-\	.	.	.	.	.
.	.	.	.	16g/	.	16ee-\	.	.	.	.	.
.	.	.	.	16g/	.	16ee-\	.	.	.	.	.
.	.	.	.	16g/	.	16ee-\	.	.	.	.	.
.	.	.	.	16g/JJ	.	16ee-\JJ	.	.	.	.	.
=17	=17	=17	=17	=17	=17	=17	=17	=17	=17	=17	=17
!	!	!	!	!	!	!	!	!LO:TX:t=P:2\right:problem	!	!	!
*	*	*	*	*	*	*	*	*2\right	*	*	*
4.A-X\	.	4.a-\	.	16ee-\LL	.	16ff\LL	.	2.e-\	.	2.f\	.
.	.	.	.	16ee-\	.	16ff\	.	.	.	.	.
.	.	.	.	16ee-\	.	16ff\	.	.	.	.	.
.	.	.	.	16ee-\	.	16ff\	.	.	.	.	.
.	.	.	.	16ee-\	.	16ff\	.	.	.	.	.
.	.	.	.	16ee-\	.	16ff\JJ	.	.	.	.	.
4.An\	.	4.an\	.	16ee-\	.	16ff\LL	.	.	.	.	.
!	!	!LO:LB:g=original	!	!	!	!	!	!	!	!	!
.	.	.	.	16ee-\	.	16ff\	.	.	.	.	.
.	.	.	.	16ee-\	.	16ff\	.	.	.	.	.
.	.	.	.	16ee-\	.	16ff\	.	.	.	.	.
.	.	.	.	16ee-\	.	16ff\	.	.	.	.	.
.	.	.	.	16ee-\JJ	.	16ff\JJ	.	.	.	.	.
=18	=18	=18	=18	=18	=18	=18	=18	=18	=18	=18	=18
4.B-\	.	4.b-\	.	16dd\LL	.	16ff\LL	.	4.d\	.	4.f\	.
.	.	.	.	16dd\	.	16ff\	.	.	.	.	.
.	.	.	.	16dd\	.	16ff\	.	.	.	.	.
.	.	.	.	16dd\	.	16ff\	.	.	.	.	.
.	.	.	.	16dd\	.	16ff\	.	.	.	.	.
.	.	.	.	16dd\	.	16ff\JJ	.	.	.	.	.
4.D\	.	4.d\	.	16dd\	.	16bb-\LL	.	4.r	.	4r	.
!	!	!	!	!	!	!	!	!LO:LB:g=original	!	!	!
.	.	.	.	16dd\	.	16bb-\	.	.	.	.	.
.	.	.	.	16dd\	.	16bb-\	.	.	.	.	.
.	.	.	.	16dd\	.	16bb-\	.	.	.	.	.
.	.	.	.	16dd\	.	16bb-\	.	.	.	8r	.
.	.	.	.	16dd\JJ	.	16bb-\JJ	.	.	.	.	.
=19	=19	=19	=19	=19	=19	=19	=19	=19	=19	=19	=19
!	!	!	!	!	!	!LO:TX:t=P:problem=2\right&colon; global	!	!LO:TX:a:t=20	!	!LO:TX:a:t=20	!
4.E-X\	.	4.e-X\	.	16cc\LL	.	16bb-\LL	.	2.r	.	2.r	.
!LO:LB:g=original	!	!	!	!	!	!	!	!	!	!	!
.	.	.	.	16cc\	.	16bb-\	.	.	.	.	.
.	.	.	.	16cc\	.	16bb-\	.	.	.	.	.
.	.	.	.	16cc\	.	16bb-\	.	.	.	.	.
.	.	.	.	16cc\	.	16bb-\	.	.	.	.	.
.	.	.	.	16cc\	.	16bb-\	.	.	.	.	.
4.En\	.	4.en\	.	16cc\	.	16bb-\	.	.	.	.	.
.	.	.	.	16cc\	.	16bb-\	.	.	.	.	.
.	.	.	.	16cc\	.	16bb-\	.	.	.	.	.
.	.	.	.	16cc\	.	16bb-\	.	.	.	.	.
.	.	.	.	16cc\	.	16bb-\	.	.	.	.	.
.	.	.	.	16cc\JJ	.	16bb-\JJ	.	.	.	.	.
!	!	!	!	!	!	!LO:LB:g=original	!	!	!	!	!
=20	=20	=20	=20	=20	=20	=20	=20	=20	=20	=20	=20
4.F\	.	4.f\	.	16cc\LL	.	16aan\LL	.	2.r	.	2.r	.
.	.	.	.	16cc\	.	16aa\	.	.	.	.	.
.	.	.	.	16cc\	.	16aa\	.	.	.	.	.
.	.	.	.	16cc\	.	16aa\	.	.	.	.	.
.	.	.	.	16cc\	.	16aa\	.	.	.	.	.
.	.	.	.	16cc\JJ	.	16aa\JJ	.	.	.	.	.
4.D\	.	4.d\	.	16dd\LL	.	16bb-\LL	.	.	.	.	.
.	.	.	.	16dd\	.	16bb-\	.	.	.	.	.
.	.	.	.	16dd\	.	16bb-\	.	.	.	.	.
.	.	.	.	16dd\	.	16bb-\	.	.	.	.	.
.	.	.	.	16dd\	.	16bb-\	.	.	.	.	.
.	.	.	.	16dd\JJ	.	16bb-\JJ	.	.	.	.	.
=21	=21	=21	=21	=21	=21	=21	=21	=21	=21	=21	=21
4.E-X\	.	4.e-X\	.	16cc\LL	.	16bb-\LL	.	2.r	.	2.r	.
.	.	.	.	16cc\	.	16bb-\	.	.	.	.	.
.	.	.	.	16cc\	.	16bb-\	.	.	.	.	.
.	.	.	.	16cc\	.	16bb-\	.	.	.	.	.
.	.	.	.	16cc\	.	16bb-\	.	.	.	.	.
.	.	.	.	16cc\	.	16bb-\	.	.	.	.	.
4.En\	.	4.en\	.	16cc\	.	16bb-\	.	.	.	.	.
.	.	.	.	16cc\	.	16bb-\	.	.	.	.	.
.	.	.	.	16cc\	.	16bb-\	.	.	.	.	.
.	.	.	.	16cc\	.	16bb-\	.	.	.	.	.
.	.	.	.	16cc\	.	16bb-\	.	.	.	.	.
*	*	*	*	*Xtremolo	*	*Xtremolo	*	*	*	*	*
.	.	.	.	16cc\JJ	.	16bb-\JJ	.	.	.	.	.
!	!	!	!	!LO:LB:g=original	!	!	!	!	!	!	!
=22	=22	=22	=22	=22	=22	=22	=22	=22	=22	=22	=22
4F\	.	4f\	.	4cc\	.	4aan\	.	2.r	.	2.r	.
8En\	.	8en\	.	8dd\	.	8bb-\	.	.	.	.	.
4F\	.	4f\	.	4cc\	.	4aa\	.	.	.	.	.
8E\	.	8e\	.	8dd\	.	8bb-\	.	.	.	.	.
=23	=23	=23	=23	=23	=23	=23	=23	=23	=23	=23	=23
!LO:TX:t=P:problem=mixed beam	!	!	!	!	!	!	!	!	!	!	!
8F\L	.	8f\L	.	8f/L 8cc	.	8cc\L 8aan	.	2.r	.	2.r	.
8C/	.	8c\	.	8f/ 8cc	.	8cc\ 8aa	.	.	.	.	.
!LO:TX:a:t=SIC&colon;s=8AAn	!	!LO:TX:a:t=SIC&colon;s=8An	!	!	!	!	!	!	!	!	!
8AA-/J	.	8A-\J	.	8f/J 8cc	.	8cc\J 8aa	.	.	.	.	.
!LO:TX:t=P:problem=mixed beam	!	!LO:TX:t=P:problem=mixed beam	!	!	!	!	!	!	!	!	!
8FF/L	.	8F/L	.	4f/ 4cc	.	4cc\ 4aa	.	.	.	.	.
16F\L	.	16f\L	.	.	.	.	.	.	.	.	.
16E-X\	.	16e-X\	.	.	.	.	.	.	.	.	.
16D\	.	16d\	.	8r	.	8r	.	.	.	.	.
16C\JJ	.	16c\JJ	.	.	.	.	.	.	.	.	.
=24	=24	=24	=24	=24	=24	=24	=24	=24	=24	=24	=24
!	!	!	!	!LO:TX:b:t=Dol.	!	!LO:TX:a:t=Dol.	!	!	!	!	!
!	!	!	!	!	!LO:DY:b:t=pia	!	!	!	!	!	!
4.BB-/	p	4.B-/	p	8.f/L	p	8.dd\L	p	2.r	.	2.r	.
.	.	.	.	16g/K	.	16ee-\K	.	.	.	.	.
.	.	.	.	8e-/J	.	8cc\J	.	.	.	.	.
4.B-\	.	4r	.	4d/	.	4b-\	.	.	.	.	.
.	.	8r	.	8d/	.	8b-\	.	.	.	.	.
=25	=25	=25	=25	=25	=25	=25	=25	=25	=25	=25	=25
4BB-/	.	4r	.	4d/	.	4b-\	.	2.r	.	2.r	.
8r	.	8r	.	8an/	.	8ccT\	.	.	.	.	.
8B-\L	.	8b-\L	.	4b-\	.	4dd\	.	.	.	.	.
8F\	.	8f\	.	.	.	.	.	.	.	.	.
8D\J	.	8d\J	.	8r	.	8r	.	.	.	.	.
!	!	!LO:LB:g=original	!	!	!	!	!	!	!	!	!
=26	=26	=26	=26	=26	=26	=26	=26	=26	=26	=26	=26
4.BB-/	.	4.B-/	.	8.dd\L	.	8.ff\L	.	2.r	.	2.r	.
.	.	.	.	16ee-\K	.	16gg\K	.	.	.	.	.
.	.	.	.	8cc\J	.	8ee-\J	.	.	.	.	.
4.B-\	.	4.b-\	.	8b-\L	.	8dd\L	.	.	.	.	.
.	.	.	.	8b-\	.	8dd\	.	.	.	.	.
.	.	.	.	8b-\J	.	8dd\J	.	.	.	.	.
!	!	!	!	!	!	!LO:LB:g=original	!	!	!	!	!
=27	=27	=27	=27	=27	=27	=27	=27	=27	=27	=27	=27
4.BB-/	.	4r	.	4b-\	.	4dd\	.	2.r	.	2.r	.
.	.	8r	.	8cc\	.	8ee-\	.	.	.	.	.
8B-\L	.	8b-\L	.	4dd\	.	4ff\	.	.	.	.	.
8F\	.	8f\	.	.	.	.	.	.	.	.	.
!LO:TX:t=P:problem=dźwięk nieczytelny	!	!	!	!	!	!	!	!	!	!	!
!LO:LB:g=original	!	!	!	!	!	!	!	!	!	!	!
8D\Jyy	.	8d\J	.	8r	.	8r	.	.	.	.	.
!	!	!	!	!LO:LB:g=original	!	!	!	!	!	!	!
=28	=28	=28	=28	=28	=28	=28	=28	=28	=28	=28	=28
4.BB-/	fp	4.B-/	fp	4d/	fp	4bb-\	fp	2.r	.	2.r	.
.	.	.	.	8e-/	.	8gg\	.	.	.	.	.
.	.	.	.	8qqe-/	.	8qqgg/	.	.	.	.	.
4.B-\	.	4.b-\	.	8d/L	.	8ff\L	.	.	.	.	.
.	.	.	.	8c/	.	8ee-\	.	.	.	.	.
.	.	.	.	8B-/J	.	8dd\J	.	.	.	.	.
=29	=29	=29	=29	=29	=29	=29	=29	=29	=29	=29	=29
2.BB-/	fp	2.B-/	fp	4d/	fp	4bb-\	fp	2.r	.	2.r	.
.	.	.	.	8e-/	.	8gg\	.	.	.	.	.
.	.	.	.	8qqe-/	.	.	.	.	.	.	.
.	.	.	.	8d/L	.	8ff\L	.	.	.	.	.
.	.	.	.	8c/	.	8ee-\	.	.	.	.	.
.	.	.	.	8B-/J	.	8dd\J	.	.	.	.	.
=30	=30	=30	=30	=30	=30	=30	=30	=30	=30	=30	=30
[4.F\	p	[4.f\	.	4An/	.	4cc\	.	2.r	.	2.r	.
.	.	.	.	8B-/	.	8dd\	.	.	.	.	.
8F\L]	.	8f\L]	.	4c/	.	4ee-\	.	.	.	.	.
!LO:TX:a:t=SIC&colon;s=8An	!	!	!	!	!	!	!	!	!	!	!
8A-\	.	8an\	.	.	.	.	.	.	.	.	.
8B-\J	.	8b-\J	.	8B-/	.	8dd\	.	.	.	.	.
=31	=31	=31	=31	=31	=31	=31	=31	=31	=31	=31	=31
!	!	!	!	!LO:TX:a:t=SIC&colon;s=8An	!	!	!	!	!	!	!
4.F\	.	4.f\	.	8A-/L	.	8cc\L	.	2.r	.	2.r	.
.	.	.	.	16an/L	.	16cc\L	.	.	.	.	.
.	.	.	.	16g/	.	16b-\	.	.	.	.	.
.	.	.	.	16f/	.	16an\	.	.	.	.	.
.	.	.	.	16g/JJ	.	16b-\JJ	.	.	.	.	.
16F\LL	.	16f\LL	.	4a/	.	4cc\	.	.	.	.	.
16G\	.	16g\	.	.	.	.	.	.	.	.	.
16F\	.	16f\	.	.	.	.	.	.	.	.	.
16E-\	.	16e-\	.	.	.	.	.	.	.	.	.
16D\	.	16d\	.	8r	.	8r	.	.	.	.	.
16C\JJ	.	16c\JJ	.	.	.	.	.	.	.	.	.
=32	=32	=32	=32	=32	=32	=32	=32	=32	=32	=32	=32
!	!	!	!	!LO:TX:a:t=2	!	!	!LO:DY:a	!	!	!	!
4.BB-/	.	8.f\L	pp	2.r	.	8.d/L	pp	2.r	.	2.r	.
.	.	16g\K	.	.	.	16e-/K	.	.	.	.	.
.	.	8e-\J	.	.	.	8c/J	.	.	.	.	.
4.B-\	.	4d\	.	.	.	4B-/	.	.	.	.	.
.	.	8d\	.	.	.	8B-/	.	.	.	.	.
=33	=33	=33	=33	=33	=33	=33	=33	=33	=33	=33	=33
!	!	!	!	!LO:TX:b:t=Volti Subito	!	!	!	!	!	!	!
4.BB-/	.	4d\	.	2.r	.	4.B-/	.	2.r	.	2.r	.
!	!	!	!	!LO:PB:g=original	!	!	!	!	!	!	!
.	.	8e-\	.	.	.	.	.	.	.	.	.
8B-\L	.	4f\	.	.	.	8c/L	.	.	.	.	.
!	!	!	!	!	!	!LO:N:vis=4	!	!	!	!	!
8F\	.	.	.	.	.	8d/J	.	.	.	.	.
8D\J	.	8r	.	.	.	8r	.	.	.	.	.
!	!	!	!	!	!	!LO:LB:g=original	!	!	!	!	!
!	!	!LO:LB:g=original	!	!	!	!	!	!	!	!	!
=34	=34	=34	=34	=34	=34	=34	=34	=34	=34	=34	=34
4.BB-/	.	4.B-/	.	8.d/L	p	8.f/L	.	2.r	.	2.r	.
.	.	.	.	16e-/K	.	16g/K	.	.	.	.	.
.	.	.	.	8c/J	.	8e-/J	.	.	.	.	.
4.B-\	.	4.b-\	.	4B-/	.	8d/L	.	.	.	.	.
.	.	.	.	.	.	8d/	.	.	.	.	.
.	.	.	.	8B-/	.	8d/J	.	.	.	.	.
=35	=35	=35	=35	=35	=35	=35	=35	=35	=35	=35	=35
4.BB-/	.	4.B-/	.	4B-/	.	4d/	.	2.r	.	2.r	.
.	.	.	.	8c/	.	8e-/	.	.	.	.	.
8B-\L	.	8b-\L	.	4d/	.	4f/	.	.	.	.	.
8F\	.	8f\	.	.	.	.	.	.	.	.	.
8D\J	.	8d\J	.	8r	.	8r	.	.	.	.	.
=36	=36	=36	=36	=36	=36	=36	=36	=36	=36	=36	=36
4.BB-/	fp	2.B-/	fp	4d/	fp	4b-/	fp	2.r	.	2.r	.
.	.	.	.	8e-/	.	8g/	.	.	.	.	.
.	.	.	.	8qqe-/	.	.	.	.	.	.	.
4B-\	.	.	.	8d/L	.	8f/L	.	.	.	.	.
.	.	.	.	8c/	.	8e-/	.	.	.	.	.
8r	.	.	.	8B-/J	.	8d/J	.	.	.	.	.
!LO:LB:g=original	!	!	!	!	!	!	!	!	!	!	!
=37	=37	=37	=37	=37	=37	=37	=37	=37	=37	=37	=37
4.BB-/	fp	4.B-/	fp	4d/	fp	4b-/	fp	2.r	.	2.r	.
.	.	.	.	8e-/	.	8g/	.	.	.	.	.
.	.	.	.	8qqe-/	.	.	.	.	.	.	.
4B-\	.	4b-\	.	8d/L	.	8f/L	.	.	.	.	.
.	.	.	.	8c/	.	8e-/	.	.	.	.	.
8r	.	8r	.	8B-/J	.	8d/J	.	.	.	.	.
=38	=38	=38	=38	=38	=38	=38	=38	=38	=38	=38	=38
4E-\	.	4.e-\	.	4e-/	.	8c/L	.	2.r	.	2.r	.
.	.	.	.	.	.	8g/	.	.	.	.	.
8r	.	.	.	8d/	.	8f/J	.	.	.	.	.
.	.	.	.	.	.	8qqf/	.	.	.	.	.
4F\	.	4f\	.	8c/L	.	8e-/L	.	.	.	.	.
.	.	.	.	8B-/	.	8d/	.	.	.	.	.
!	!	!	!	!LO:TX:a:t=SIC&colon;s=8An	!	!	!	!	!	!	!
8FF/	.	8F/	.	8A-/J	.	8c/J	.	.	.	.	.
=39	=39	=39	=39	=39	=39	=39	=39	=39	=39	=39	=39
!LO:TX:b:t=Cres	!	!	!	!	!	!	!	!	!	!	!
*	*	*tremolo	*	*	*	*	*	*	*	*	*
!	!	!	!	!	!	!LO:TX:t=P:problem=mixed beam	!	!	!	!	!
!	!	!LO:TX:b:t=Cres	!	!LO:TX:a:t=Cres	!	!LO:TX:a:t=Cres&colon;	!	!LO:TX:b:t=Cres	!	!LO:TX:b:t=Cres	!
8BB-/L	.	8B-/L	.	8B-/L	.	8B-/L	.	2.B-/	.	[2.b-\	.
8BB-/	.	8B-/	.	8d/	.	8b-\	.	.	.	.	.
8BB-/J	.	8B-/	.	8d/J	.	8b-\J	.	.	.	.	.
*tremolo	*	*	*	*	*	*	*	*	*	*	*
8BB-/L	.	8B-/	.	8d/L	.	8b-\L	.	.	.	.	.
8BB-/	.	8B-/	.	8d/	.	8b-\	.	.	.	.	.
8BB-/J	.	8B-/J	.	8d/J	.	8b-\J	.	.	.	.	.
!	!	!	!	!LO:LB:g=original	!	!	!	!	!	!	!
=40	=40	=40	=40	=40	=40	=40	=40	=40	=40	=40	=40
!	!	!	!	!	!	!LO:TX:a:t=SIC&colon;s=8an	!	!	!	!	!
8BB-/L	.	8B-/L	.	8c/L	.	8a-\L	.	2.B-/	.	2.b-\_	.
8BB-/	.	8B-/	.	8e-/	.	8cc\	.	.	.	.	.
8BB-/	.	8B-/	.	8e-/J	.	8cc\J	.	.	.	.	.
8BB-/	.	8B-/	.	8e-/L	.	8cc\L	.	.	.	.	.
8BB-/	.	8B-/	.	8e-/	.	8cc\	.	.	.	.	.
8BB-/J	.	8B-/J	.	8e-/J	.	8cc\J	.	.	.	.	.
!	!	!	!	!	!	!LO:LB:g=original	!	!	!	!	!
=41	=41	=41	=41	=41	=41	=41	=41	=41	=41	=41	=41
!	!LO:DY:b:t=for	!	!LO:DY:b:t=rin for	!LO:TX:t=P:problem=mixed beam	!	!	!	!	!	!	!
!	!	!	!	!	!	!	!	!	!LO:DY:b:t=for	!	!
8BB-/L	f	8B-/L	rfz	8d/L	.	8b-\L	.	2.B-/	f	2.b-\_	.
!	!	!	!	!	!	!	!LO:DY:b:t=for	!	!	!	!
8BB-/	.	8B-/	.	8dd/	.	8bb-\	f	.	.	.	.
8BB-/	.	8B-/	.	8dd/J	.	8bb-\J	.	.	.	.	.
*	*	*	*	*tremolo	*	*	*	*	*	*	*
!	!	!	!	!	!LO:DY:b:t=rin for	!	!	!	!	!	!
8BB-/	.	8B-/	.	8dd\L	rfz	8bb-\L	.	.	.	.	.
8BB-/	.	8B-/	.	8dd\	.	8bb-\	.	.	.	.	.
*	*	*	*	*Xtremolo	*	*	*	*	*	*	*
8BB-/J	.	8B-/J	.	8dd\J	.	8bb-\J	.	.	.	.	.
=42	=42	=42	=42	=42	=42	=42	=42	=42	=42	=42	=42
!	!	!	!	!	!	!LO:TX:a:t=SIC&colon;s=8aan	!	!	!	!	!
8BB-/L	.	8B-/L	.	8cc\L	.	8aa-\L	.	2.B-/	.	2.b-\]	.
8BB-/	.	8B-/	.	8ee-X\	.	8ccc\	.	.	.	.	.
8BB-/	.	8B-/	.	8ee-\J	.	8ccc\J	.	.	.	.	.
*	*	*	*	*tremolo	*	*	*	*	*	*	*
8BB-/	.	8B-/	.	8ee-\L	.	8ccc\L	.	.	.	.	.
8BB-/	.	8B-/	.	8ee-\	.	8ccc\	.	.	.	.	.
*Xtremolo	*	*	*	*	*	*	*	*	*	*	*
8BB-/J	.	8B-/J	.	8ee-\J	.	8ccc\J	.	.	.	.	.
=43	=43	=43	=43	=43	=43	=43	=43	=43	=43	=43	=43
!	!	!LO:TX:t=P:problem=2\right&colon; global	!	!	!	!	!	!	!	!	!
*	*	*	*	*	*	*tremolo	*	*	*	*	*
!	!LO:DY:b:t=for	!	!LO:DY:b:t=ffor	!	!LO:DY:b:t=ffor	!	!LO:DY:b:t=ffor	!	!	!	!
4BB-/	f	16f\LL	ff	16dd\LL	ff	16bb-\LL	ff	4B-/	.	4b-\	.
.	.	16f\	.	16dd\	.	16bb-\	.	.	.	.	.
.	.	16f\	.	16dd\	.	16bb-\	.	.	.	.	.
.	.	16f\	.	16dd\	.	16bb-\	.	.	.	.	.
16D/LL	.	16f\	.	16dd\	.	16bb-\	.	8r	.	8r	.
16F/JJ	.	16f\	.	16dd\	.	16bb-\	.	.	.	.	.
!LO:TX:t=P:problem=mixed beam	!	!	!	!	!	!	!	!	!	!	!
8B-\L	.	16f\	.	16dd\	.	16bb-\	.	8r	.	8r	.
.	.	16f\	.	16dd\	.	16bb-\	.	.	.	.	.
!	!	!	!	!	!	!	!	!	!	!	!LO:DY:b:t=for
8BB-/	.	16f\	.	16dd\	.	16bb-\	.	8BB-/L	.	8B-/L	f
.	.	16f\	.	16dd\	.	16bb-\	.	.	.	.	.
8B-\J	.	16f\	.	16dd\	.	16bb-\	.	8BB-/J	.	8B-/J	.
.	.	16f\JJ	.	16dd\JJ	.	16bb-\JJ	.	.	.	.	.
=44	=44	=44	=44	=44	=44	=44	=44	=44	=44	=44	=44
!LO:N:vis=4.	!	!	!	!	!	!	!	!	!	!	!
4EE-/	.	16g\LL	.	16ee-\LL	.	16gg\LL	.	4.BB-/	.	4B-/	.
.	.	16g\	.	16ee-\	.	16gg\	.	.	.	.	.
.	.	16g\	.	16ee-\	.	16gg\	.	.	.	.	.
.	.	16g\	.	16ee-\	.	16gg\	.	.	.	.	.
16GG/LL	.	16g\	.	16ee-\	.	16gg\	.	.	.	8r	.
16BB-/JJ	.	16g\	.	16ee-\	.	16gg\	.	.	.	.	.
!LO:TX:t=P:problem=mixed beam	!	!	!	!	!	!	!	!	!	!	!
8E-\L	.	16g\	.	16ee-\	.	16gg\	.	8r	.	8r	.
.	.	16g\	.	16ee-\	.	16gg\	.	.	.	.	.
8EE-/	.	16g\	.	16ee-\	.	16gg\	.	8BB-/L	.	8B-/L	.
.	.	16g\	.	16ee-\	.	16gg\	.	.	.	.	.
8E-\J	.	16g\	.	16ee-\	.	16gg\	.	8BB-/J	.	8B-/J	.
*	*	*Xtremolo	*	*Xtremolo	*	*Xtremolo	*	*	*	*	*
.	.	16g\JJ	.	16ee-\JJ	.	16gg\JJ	.	.	.	.	.
=45	=45	=45	=45	=45	=45	=45	=45	=45	=45	=45	=45
4.F\	.	16f\LL	.	16dd\LL	.	16ff\LL	.	4.f\	.	4.f\	.
.	.	16f\	.	16dd\	.	16ff\	.	.	.	.	.
.	.	16g\	.	16ee-\	.	16gg\	.	.	.	.	.
.	.	16g\	.	16ee-\	.	16gg\	.	.	.	.	.
.	.	16f\	.	16dd\	.	16ff\	.	.	.	.	.
.	.	16f\JJ	.	16dd\JJ	.	16ff\JJ	.	.	.	.	.
4.FF/	.	16e-\LL	.	16cc\LL	.	16ee-\LL	.	4.f\	.	4.f\	.
!LO:LB:g=original	!	!	!	!	!	!	!	!	!	!LO:LB:g=original	!
.	.	16e-\	.	16cc\	.	16ee-\	.	.	.	.	.
.	.	16d\	.	16b-\	.	16dd\	.	.	.	.	.
.	.	16d\	.	16b-\	.	16dd\	.	.	.	.	.
.	.	16c\	.	16an\	.	16cc\	.	.	.	.	.
.	.	16c\JJ	.	16a\JJ	.	16cc\JJ	.	.	.	.	.
=46	=46	=46	=46	=46	=46	=46	=46	=46	=46	=46	=46
*	*	*tremolo	*	*tremolo	*	*tremolo	*	*	*	*	*
4BB-/	.	16f\LL	.	16dd\LL	.	16bb-\LL	.	4.BB-/	.	4.B-/	.
.	.	16f\	.	16dd\	.	16bb-\	.	.	.	.	.
.	.	16f\	.	16dd\	.	16bb-\	.	.	.	.	.
.	.	16f\	.	16dd\	.	16bb-\	.	.	.	.	.
16D/LL	.	16f\	.	16dd\	.	16bb-\	.	.	.	.	.
16F/JJ	.	16f\	.	16dd\	.	16bb-\	.	.	.	.	.
!LO:TX:t=P:problem=mixed beam	!	!	!	!	!	!	!	!	!	!	!
8B-/L	.	16f\	.	16dd\	.	16bb-\	.	8r	.	8r	.
.	.	16f\	.	16dd\	.	16bb-\	.	.	.	.	.
8BB-\	.	16f\	.	16dd\	.	16bb-\	.	8BB-/L	.	8B-/L	.
.	.	16f\	.	16dd\	.	16bb-\	.	.	.	.	.
8B-/J	.	16f\	.	16dd\	.	16bb-\	.	8BB-/J	.	8B-/J	.
!	!	!	!	!	!	!	!	!LO:LB:g=original	!	!	!
.	.	16f\JJ	.	16dd\JJ	.	16bb-\JJ	.	.	.	.	.
=47	=47	=47	=47	=47	=47	=47	=47	=47	=47	=47	=47
!LO:N:vis=4.	!	!	!	!	!	!	!	!	!	!	!
4EE-/	.	16g\LL	.	16ee-\LL	.	16gg\LL	.	4.BB-/	.	4.B-/	.
.	.	16g\	.	16ee-\	.	16gg\	.	.	.	.	.
.	.	16g\	.	16ee-\	.	16gg\	.	.	.	.	.
.	.	16g\	.	16ee-\	.	16gg\	.	.	.	.	.
16GG/LL	.	16g\	.	16ee-\	.	16gg\	.	.	.	.	.
16BB-/JJ	.	16g\	.	16ee-\	.	16gg\	.	.	.	.	.
!LO:TX:t=P:problem=mixed beam	!	!	!	!	!	!	!	!	!	!	!
8E-\L	.	16g\	.	16ee-\	.	16gg\	.	8r	.	8r	.
.	.	16g\	.	16ee-\	.	16gg\	.	.	.	.	.
8EE-/	.	16g\	.	16ee-\	.	16gg\	.	8BB-/L	.	8B-/L	.
.	.	16g\	.	16ee-\	.	16gg\	.	.	.	.	.
8E-\J	.	16g\	.	16ee-\	.	16gg\	.	8BB-/J	.	8B-/J	.
*	*	*Xtremolo	*	*Xtremolo	*	*Xtremolo	*	*	*	*	*
.	.	16g\JJ	.	16ee-\JJ	.	16gg\JJ	.	.	.	.	.
!	!	!	!	!LO:LB:g=original	!	!	!	!	!	!	!
=48	=48	=48	=48	=48	=48	=48	=48	=48	=48	=48	=48
4.F\	.	16f\LL	.	16dd\LL	.	16ff\LL	.	4.f\	.	4.f\	.
.	.	16f\	.	16dd\	.	16ff\	.	.	.	.	.
.	.	16g\	.	16ee-\	.	16gg\	.	.	.	.	.
.	.	16g\	.	16ee-\	.	16gg\	.	.	.	.	.
.	.	16f\	.	16dd\	.	16ff\	.	.	.	.	.
.	.	16f\JJ	.	16dd\JJ	.	16ff\JJ	.	.	.	.	.
!	!	!	!	!	!	!LO:LB:g=original	!	!	!	!	!
4.FF/	.	16e-\LL	.	16cc\LL	.	16ee-\LL	.	4.f\	.	4.f\	.
.	.	16e-\	.	16cc\	.	16ee-\	.	.	.	.	.
.	.	16d\	.	16b-\	.	16dd\	.	.	.	.	.
.	.	16d\	.	16b-\	.	16dd\	.	.	.	.	.
!	!	!	!	!LO:TX:a:t=SIC&colon;16an	!	!	!	!	!	!	!
.	.	16c\	.	16a-\	.	16cc\	.	.	.	.	.
!	!	!	!	!LO:TX:a:t=SIC&colon;16an	!	!	!	!	!	!	!
.	.	16c\JJ	.	16a-\JJ	.	16cc\JJ	.	.	.	.	.
=49	=49	=49	=49	=49	=49	=49	=49	=49	=49	=49	=49
*	*	*	*	*	*	*	*	*	*	*tremolo	*
8BB-/L	.	8B-/L	.	8b-/L	.	8b-\L	.	8B-/L	.	8f\L	.
8D/	.	8d/	.	8f/ 8dd	.	8dd\ 8bb-	.	8B-/	.	8f\	.
*	*	*	*	*	*	*	*	*	*	*Xtremolo	*
8F/J	.	8f/J	.	8f/J 8dd	.	8dd\J 8bb-	.	8B-/J	.	8f\J	.
4.B-\	.	4b-\	.	4f/ 4dd	.	4dd\ 4bb-	.	4B-/	.	4f\	.
.	.	8r	.	8r	.	8r	.	8r	.	8r	.
=50:|!|:	=50:|!|:	=50:|!|:	=50:|!|:	=50:|!|:	=50:|!|:	=50:|!|:	=50:|!|:	=50:|!|:	=50:|!|:	=50:|!|:	=50:|!|:
*	*	*tremolo	*	*	*	*	*	*	*	*	*
!	!	!	!	!	!	!	!	!	!	!LO:TX:a:t=8	!
4.BB-/	p	8B-/L	p	4.b-\	p	4.b-\	p	2.r	.	2.r	.
.	.	8B-/	.	.	.	.	.	.	.	.	.
.	.	8B-/J	.	.	.	.	.	.	.	.	.
.	.	.	.	.	.	8qqdd/	.	.	.	.	.
4.r	.	8B-/L	.	4r	.	8cc\L	.	.	.	.	.
.	.	8B-/	.	.	.	8b-X\	.	.	.	.	.
.	.	8B-/J	.	8r	.	8cc\J	.	.	.	.	.
=51	=51	=51	=51	=51	=51	=51	=51	=51	=51	=51	=51
!	!	!	!	!LO:N:vis=4	!	!	!	!	!	!	!
4.BB-/	.	8B-/L	.	4.b-\	.	4.dd\	.	2.r	.	2.r	.
.	.	8B-/	.	.	.	.	.	.	.	.	.
.	.	8B-/	.	.	.	.	.	.	.	.	.
.	.	.	.	8qqdd/	.	8qqff/	.	.	.	.	.
4.r	.	8B-/	.	8cc\L	.	8ee-\L	.	.	.	.	.
.	.	8B-/	.	8b-\	.	8dd\	.	.	.	.	.
.	.	8B-/J	.	8cc\J	.	8ee-\J	.	.	.	.	.
=52	=52	=52	=52	=52	=52	=52	=52	=52	=52	=52	=52
4BB-/	.	8B-/L	.	4.dd\	.	4.ff\	.	2.r	.	2.r	.
.	.	8B-/	.	.	.	.	.	.	.	.	.
8r	.	8B-/	.	.	.	.	.	.	.	.	.
4r	.	8B-/	.	8gg\L	.	8bb-\L	.	.	.	.	.
.	.	8B-/	.	8ff\	.	8aan\	.	.	.	.	.
*	*	*Xtremolo	*	*	*	*	*	*	*	*	*
8r	.	8B-/J	.	8ee-\J	.	8gg\J	.	.	.	.	.
!LO:LB:g=original	!	!	!	!	!	!	!	!	!	!	!
=53	=53	=53	=53	=53	=53	=53	=53	=53	=53	=53	=53
4.F\	.	8f\L	.	4dd\	.	4ff\	.	2.r	.	2.r	.
.	.	8f\	.	.	.	.	.	.	.	.	.
.	.	8f\J	.	8cc\	.	8ee-\	.	.	.	.	.
!	!	!LO:LB:g=original	!	!	!	!	!	!	!	!	!
4BB-/	.	8B-/L	.	4b-\	.	4dd\	.	.	.	.	.
.	.	8d/	.	.	.	.	.	.	.	.	.
8r	.	8B-/J	.	8r	.	8r	.	.	.	.	.
!	!	!	!	!LO:LB:g=original	!	!	!	!	!	!	!
=54	=54	=54	=54	=54	=54	=54	=54	=54	=54	=54	=54
*	*	*tremolo	*	*	*	*	*	*	*	*	*
4.F\	.	8f\L	.	4.an/	.	4.cc\	.	2.r	.	2.r	.
.	.	8f\	.	.	.	.	.	.	.	.	.
.	.	8f\	.	.	.	.	.	.	.	.	.
4.FF/	.	8f\	.	8a/L	.	8cc\L	.	.	.	.	.
.	.	8f\	.	8b-/	.	8dd\	.	.	.	.	.
.	.	8f\J	.	8cc/J	.	8ee-\J	.	.	.	.	.
!	!	!	!	!	!	!LO:LB:g=original	!	!	!	!	!
=55	=55	=55	=55	=55	=55	=55	=55	=55	=55	=55	=55
4.BB-/	.	8B-/L	.	4.b-\	.	4.dd\	.	2.r	.	2.r	.
.	.	8B-/	.	.	.	.	.	.	.	.	.
.	.	8B-/	.	.	.	.	.	.	.	.	.
4.B-\	.	8B-/	.	8b-\L	.	8dd\L	.	.	.	.	.
.	.	8B-/	.	8cc\	.	8ee-\	.	.	.	.	.
.	.	8B-/J	.	8dd\J	.	8ff\J	.	.	.	.	.
=56	=56	=56	=56	=56	=56	=56	=56	=56	=56	=56	=56
4.B-\	.	8B-/L	.	(8dd\L	.	(8ff\L	.	2.r	.	2.r	.
.	.	8B-/	.	8cc\)	.	8ee-\)	.	.	.	.	.
.	.	8B-/J	.	8b-|\J	.	8dd|\J	.	.	.	.	.
4.BB-/	.	8b-\L	.	(8dd\L	.	(8ff\L	.	.	.	.	.
.	.	8b-\	.	8cc\)	.	8ee-\)	.	.	.	.	.
.	.	8b-\J	.	8b-|\J	.	8dd|\J	.	.	.	.	.
=57	=57	=57	=57	=57	=57	=57	=57	=57	=57	=57	=57
!	!	!	!	!LO:TX:a:t=SIC&colon;s=8an	!	!	!	!	!	!	!
.	.	.	.	8qqb-/	.	.	.	.	.	.	.
4.F\	.	8f\L	.	8a-/L	.	8cc\L	.	2.r	.	2.r	.
!	!	!	!	!LO:TX:a:t=SIC&colon;s=8an	!	!	!	!	!	!	!
.	.	8f\	.	8a-/	.	8cc\	.	.	.	.	.
*	*	*Xtremolo	*	*	*	*	*	*	*	*	*
!	!	!	!	!LO:TX:a:t=SIC&colon;s=8an	!	!	!	!	!	!	!
.	.	8f\J	.	8a-/J	.	8cc\J	.	.	.	.	.
!	!	!	!	!LO:TX:a:t=SIC&colon;s=4an	!	!	!	!	!	!	!
16F\LL	.	16f\LL	.	4a-/	.	4cc\	.	.	.	.	.
16G\	.	16g\	.	.	.	.	.	.	.	.	.
16F\	.	16f\	.	.	.	.	.	.	.	.	.
16E-\	.	16e-\	.	.	.	.	.	.	.	.	.
16D\	.	16d\	.	8r	.	8r	.	.	.	.	.
16C\JJ	.	16c\JJ	.	.	.	.	.	.	.	.	.
=58	=58	=58	=58	=58	=58	=58	=58	=58	=58	=58	=58
*	*	*tremolo	*	*	*	*	*	*	*	*	*
!	!LO:DY:b:t=for	!	!LO:DY:b:t=for	!	!LO:DY:b:t=for	!	!LO:DY:b:t=for	!	!LO:DY:b:t=for	!	!LO:DY:b:t=for
8BB-/L	f	8B-/L	f	4.B-/ 4.f 4.b-	f	4.b-\	f	2.B-/	f	[2.b-\	f
8BB-/	.	8B-/	.	.	.	.	.	.	.	.	.
8BB-/J	.	8B-/J	.	.	.	.	.	.	.	.	.
*tremolo	*	*	*	*	*	*	*	*	*	*	*
.	.	.	.	.	.	8qqdd/	.	.	.	.	.
8BB-/L	.	8B-/L	.	4r	.	8cc\L	.	.	.	.	.
8BB-/	.	8B-/	.	.	.	8b-\	.	.	.	.	.
8BB-/J	.	8B-/J	.	8r	.	8cc\J	.	.	.	.	.
=59	=59	=59	=59	=59	=59	=59	=59	=59	=59	=59	=59
8BB-/L	.	8B-/L	.	8b-\L	.	8dd\L	.	2.B-/	.	2.b-\_	.
8BB-/	.	8B-/	.	8b-\	.	8dd\	.	.	.	.	.
8BB-/	.	8B-/	.	8b-\J	.	8dd\J	.	.	.	.	.
.	.	.	.	8qqdd/	.	8qqff/	.	.	.	.	.
8BB-/	.	8B-/	.	8cc\L	.	8ee-\L	.	.	.	.	.
8BB-/	.	8B-/	.	8b-\	.	8dd\	.	.	.	.	.
8BB-/J	.	8B-/J	.	8cc\J	.	8ee-\J	.	.	.	.	.
=60	=60	=60	=60	=60	=60	=60	=60	=60	=60	=60	=60
8BB-/L	.	8B-/L	.	4dd\	.	4.ff\	.	2.B-/	.	2.b-\]	.
!	!	!	!	!	!	!	!	!	!	!LO:LB:g=original	!
8BB-/	.	8B-/	.	.	.	.	.	.	.	.	.
8BB-/	.	8B-/	.	8b-\	.	.	.	.	.	.	.
8BB-/	.	8B-/	.	8gg\L	.	8bb-\L	.	.	.	.	.
8BB-/	.	8B-/	.	8ff\	.	8aan\	.	.	.	.	.
*Xtremolo	*	*Xtremolo	*	*	*	*	*	*	*	*	*
8BB-/J	.	8B-/J	.	8ee-\J	.	8gg\J	.	.	.	.	.
!	!	!	!	!LO:DY:b:t=for	!	!	!	!	!	!	!
=61	=61	=61	=61	=61	=61	=61	=61	=61	=61	=61	=61
8F\L	.	8f\L	.	4dd\	.	4ff\	.	4.f\	.	4.f\	.
8F\	.	8f\	.	.	.	.	.	.	.	.	.
8F\J	.	8f\J	.	8cc\	.	8ee-\	.	.	.	.	.
8B-\L	.	8b-\L	.	4b-\	.	4dd\	.	4B-/	.	4f\	.
8F\	.	8f\	.	.	.	.	.	.	.	.	.
!LO:TX:t=P:problem=dźwięk nieczytelny	!	!	!	!LO:N:vis=4	!	!	!	!	!	!	!
!LO:LB:g=original	!	!	!	!	!	!	!	!	!	!	!
8D\Jyy	.	8d\J	.	8r	.	8r	.	8r	.	8r	.
!	!	!	!	!	!	!	!	!LO:LB:g=original	!	!	!
=62	=62	=62	=62	=62	=62	=62	=62	=62	=62	=62	=62
*	*	*tremolo	*	*tremolo	*	*tremolo	*	*	*	*	*
!	!	!	!LO:DY:b:t=for	!	!	!	!LO:DY:b:t=for	!	!	!	!
4.BB-/	.	16d\LL	f	16ff\LL	.	16aa-X\LL	f	[2.BB-/	.	[2.B-/	.
.	.	16d\	.	16ff\	.	16aa-\	.	.	.	.	.
.	.	16d\	.	16ff\	.	16aa-\	.	.	.	.	.
.	.	16d\	.	16ff\	.	16aa-\	.	.	.	.	.
.	.	16d\	.	16ff\	.	16aa-\	.	.	.	.	.
.	.	16d\	.	16ff\JJ	.	16aa-\	.	.	.	.	.
4D\	.	16d\	.	16ff\LL	.	16aa-\	.	.	.	.	.
.	.	16d\	.	16ff\	.	16aa-\	.	.	.	.	.
.	.	16d\	.	16ff\	.	16aa-\	.	.	.	.	.
.	.	16d\	.	16ff\	.	16aa-\	.	.	.	.	.
8F\	.	16d\	.	16ff\	.	16aa-\	.	.	.	.	.
.	.	16d\JJ	.	16ff\JJ	.	16aa-\JJ	.	.	.	.	.
=63	=63	=63	=63	=63	=63	=63	=63	=63	=63	=63	=63
4.B-\	.	16d\LL	.	16ff\LL	.	16aa-\LL	.	2.BB-/_	.	2.B-/_	.
.	.	16d\	.	16ff\	.	16aa-\	.	.	.	.	.
.	.	16d\	.	16ff\	.	16aa-\	.	.	.	.	.
.	.	16d\	.	16ff\	.	16aa-\	.	.	.	.	.
.	.	16d\	.	16ff\	.	16aa-\	.	.	.	.	.
.	.	16d\	.	16ff\	.	16aa-\	.	.	.	.	.
4r	.	16d\	.	16ff\	.	16aa-\	.	.	.	.	.
.	.	16d\	.	16ff\	.	16aa-\	.	.	.	.	.
.	.	16d\	.	16ff\	.	16aa-\	.	.	.	.	.
.	.	16d\	.	16ff\	.	16aa-\	.	.	.	.	.
8BB-/	.	16d\	.	16ff\	.	16aa-\	.	.	.	.	.
.	.	16d\JJ	.	16ff\JJ	.	16aa-\JJ	.	.	.	.	.
!	!	!	!	!	!	!LO:LB:g=original	!	!	!	!	!
!	!	!LO:LB:g=original	!	!	!	!	!	!	!	!	!
=64	=64	=64	=64	=64	=64	=64	=64	=64	=64	=64	=64
4.EE-X/	.	16B-/LL	.	16ee-X\LL	.	16gg\LL	.	2.BB-/_	.	2.B-/_	.
.	.	16B-/	.	16ee-\	.	16gg\	.	.	.	.	.
.	.	16B-/	.	16ee-\	.	16gg\	.	.	.	.	.
.	.	16B-/	.	16ee-\	.	16gg\	.	.	.	.	.
.	.	16B-/	.	16ee-\	.	16gg\	.	.	.	.	.
.	.	16B-/	.	16ee-\	.	16gg\	.	.	.	.	.
4GG/	.	16B-/	.	16ee-\	.	16gg\	.	.	.	.	.
.	.	16B-/	.	16ee-\	.	16gg\	.	.	.	.	.
.	.	16B-/	.	16ee-\	.	16gg\	.	.	.	.	.
.	.	16B-/	.	16ee-\	.	16gg\	.	.	.	.	.
8BB-/	.	16B-/	.	16ee-\	.	16gg\	.	.	.	.	.
.	.	16B-/JJ	.	16ee-\JJ	.	16gg\JJ	.	.	.	.	.
=65	=65	=65	=65	=65	=65	=65	=65	=65	=65	=65	=65
4.E-X\	.	16B-/LL	.	16ee-\LL	.	16gg\LL	.	2.BB-/]	.	2.B-/]	.
.	.	16B-/	.	16ee-\	.	16gg\	.	.	.	.	.
.	.	16B-/	.	16ee-\	.	16gg\	.	.	.	.	.
.	.	16B-/	.	16ee-\	.	16gg\	.	.	.	.	.
.	.	16B-/	.	16ee-\	.	16gg\	.	.	.	.	.
.	.	16B-/	.	16ee-\	.	16gg\	.	.	.	.	.
4.EE-/	.	16B-/	.	16ee-\	.	16gg\	.	.	.	.	.
.	.	16B-/	.	16ee-\	.	16gg\	.	.	.	.	.
.	.	16B-/	.	16ee-\	.	16gg\	.	.	.	.	.
.	.	16B-/	.	16ee-\	.	16gg\	.	.	.	.	.
.	.	16B-/	.	16ee-\	.	16gg\	.	.	.	.	.
.	.	16B-/JJ	.	16ee-\JJ	.	16gg\JJ	.	.	.	.	.
=66	=66	=66	=66	=66	=66	=66	=66	=66	=66	=66	=66
4.GG/	.	16g\LL	.	16dd\LL	.	16ffn\LL	.	[2.G/	.	[2.g\	.
.	.	16g\	.	16dd\	.	16ff\	.	.	.	.	.
.	.	16g\	.	16dd\	.	16ff\	.	.	.	.	.
.	.	16g\	.	16dd\	.	16ff\	.	.	.	.	.
.	.	16g\	.	16dd\	.	16ff\	.	.	.	.	.
.	.	16g\	.	16dd\	.	16ff\	.	.	.	.	.
4BBn/	.	16g\	.	16dd\	.	16ff\	.	.	.	.	.
.	.	16g\	.	16dd\	.	16ff\	.	.	.	.	.
.	.	16g\	.	16dd\	.	16ff\	.	.	.	.	.
.	.	16g\	.	16dd\	.	16ff\	.	.	.	.	.
8D/	.	16g\	.	16dd\	.	16ff\	.	.	.	.	.
.	.	16g\JJ	.	16dd\JJ	.	16ff\JJ	.	.	.	.	.
=67	=67	=67	=67	=67	=67	=67	=67	=67	=67	=67	=67
4.G\	.	16g\LL	.	16dd\LL	.	16ff\LL	.	2.G/_	.	2.g\_	.
.	.	16g\	.	16dd\	.	16ff\	.	.	.	.	.
.	.	16g\	.	16dd\	.	16ff\	.	.	.	.	.
.	.	16g\	.	16dd\	.	16ff\	.	.	.	.	.
.	.	16g\	.	16dd\	.	16ff\	.	.	.	.	.
.	.	16g\	.	16dd\	.	16ff\	.	.	.	.	.
8GG/L	.	16g\	.	16dd\	.	16ff\	.	.	.	.	.
.	.	16g\	.	16dd\	.	16ff\	.	.	.	.	.
8GG/	.	16g\	.	16dd\	.	16ff\	.	.	.	.	.
.	.	16g\	.	16dd\	.	16ff\	.	.	.	.	.
8GG/J	.	16g\	.	16dd\	.	16ff\	.	.	.	.	.
*	*	*	*	*Xtremolo	*	*Xtremolo	*	*	*	*	*
.	.	16g\JJ	.	16dd\JJ	.	16ff\JJ	.	.	.	.	.
=68	=68	=68	=68	=68	=68	=68	=68	=68	=68	=68	=68
4.C/	.	16g\LL	.	16cc\LL	.	16ee-\LL	.	2.G/_	.	2.g\_	.
.	.	16g\	.	16ee-X\	.	16ccc\	.	.	.	.	.
.	.	16g\	.	16ee-\	.	16ccc\	.	.	.	.	.
.	.	16g\	.	16ee-\	.	16ccc\	.	.	.	.	.
.	.	16g\	.	16ee-\	.	16ccc\	.	.	.	.	.
.	.	16g\	.	16ee-\JJ	.	16ccc\JJ	.	.	.	.	.
*	*	*	*	*tremolo	*	*tremolo	*	*	*	*	*
4E-X\	.	16g\	.	16ee-\LL	.	16ccc\LL	.	.	.	.	.
.	.	16g\	.	16ee-\	.	16ccc\	.	.	.	.	.
.	.	16g\	.	16ee-\	.	16ccc\	.	.	.	.	.
.	.	16g\	.	16ee-\	.	16ccc\	.	.	.	.	.
8G\	.	16g\	.	16ee-\	.	16ccc\	.	.	.	.	.
.	.	16g\JJ	.	16ee-\JJ	.	16ccc\JJ	.	.	.	.	.
=69	=69	=69	=69	=69	=69	=69	=69	=69	=69	=69	=69
4.c\	.	16g\LL	.	16ee-\LL	.	16ccc\LL	.	2.G/_	.	2.g\_	.
.	.	16g\	.	16ee-\	.	16ccc\	.	.	.	.	.
.	.	16g\	.	16ee-\	.	16ccc\	.	.	.	.	.
.	.	16g\	.	16ee-\	.	16ccc\	.	.	.	.	.
.	.	16g\	.	16ee-\	.	16ccc\	.	.	.	.	.
.	.	16g\	.	16ee-\	.	16ccc\	.	.	.	.	.
4.C/	.	16g\	.	16ee-\	.	16ccc\	.	.	.	.	.
.	.	16g\	.	16ee-\	.	16ccc\	.	.	.	.	.
.	.	16g\	.	16ee-\	.	16ccc\	.	.	.	.	.
.	.	16g\	.	16ee-\	.	16ccc\	.	.	.	.	.
.	.	16g\	.	16ee-\	.	16ccc\	.	.	.	.	.
.	.	16g\JJ	.	16ee-\JJ	.	16ccc\JJ	.	.	.	.	.
=70	=70	=70	=70	=70	=70	=70	=70	=70	=70	=70	=70
!LO:TX:t=P:problem=fragment nieczytelny	!	!	!	!	!	!	!	!	!	!	!
!LO:LB:g=original	!	!	!	!	!	!	!	!	!	!	!
4ryy	.	16g\LL	.	16een\LL	.	16ddd-X\LL	.	2.G/_	.	2.g\_	.
.	.	16g\	.	16ee\	.	16ddd-\	.	.	.	.	.
.	.	16g\	.	16ee\	.	16ddd-\	.	.	.	.	.
.	.	16g\	.	16ee\	.	16ddd-\	.	.	.	.	.
8ryy	.	16g\	.	16ee\	.	16ddd-\	.	.	.	.	.
.	.	16g\	.	16ee\	.	16ddd-\	.	.	.	.	.
4En\	.	16g\	.	16ee\	.	16ddd-\	.	.	.	.	.
.	.	16g\	.	16ee\	.	16ddd-\	.	.	.	.	.
.	.	16g\	.	16ee\	.	16ddd-\	.	.	.	.	.
.	.	16g\	.	16ee\	.	16ddd-\	.	.	.	.	.
8G\	.	16g\	.	16ee\	.	16ddd-\	.	.	.	.	.
.	.	16g\JJ	.	16ee\JJ	.	16ddd-\JJ	.	.	.	.	.
=71	=71	=71	=71	=71	=71	=71	=71	=71	=71	=71	=71
!	!	!	!	!LO:LB:g=original	!	!LO:TX:a:t=SIC&colon;s=2.dd-	!	!	!	!	!
4.B-X\	.	16g\LL	.	16een\LL	.	16ddd\LL	.	2.G/]	.	2.g\]	.
!	!	!	!	!	!	!	!	!	!	!LO:LB:g=original	!
.	.	16g\	.	16ee\	.	16ddd\	.	.	.	.	.
.	.	16g\	.	16ee\	.	16ddd\	.	.	.	.	.
.	.	16g\	.	16ee\	.	16ddd\	.	.	.	.	.
.	.	16g\	.	16ee\	.	16ddd\	.	.	.	.	.
.	.	16g\	.	16ee\	.	16ddd\	.	.	.	.	.
4.BB-/	.	16g\	.	16ee\	.	16ddd\	.	.	.	.	.
.	.	16g\	.	16ee\	.	16ddd\	.	.	.	.	.
.	.	16g\	.	16ee\	.	16ddd\	.	.	.	.	.
.	.	16g\	.	16ee\	.	16ddd\	.	.	.	.	.
.	.	16g\	.	16ee\	.	16ddd\	.	.	.	.	.
.	.	16g\JJ	.	16ee\JJ	.	16ddd\JJ	.	.	.	.	.
=72	=72	=72	=72	=72	=72	=72	=72	=72	=72	=72	=72
!	!	!	!	!	!	!	!	!LO:TX:a:t=6	!	!LO:TX:a:t=6	!
4.AA-X/	.	16a-X\LL	.	16ff\LL	.	16ccc\LL	.	2.r	.	2.r	.
.	.	16a-\	.	16ff\	.	16ccc\	.	.	.	.	.
.	.	16a-\	.	16ff\	.	16ccc\	.	.	.	.	.
.	.	16a-\	.	16ff\	.	16ccc\	.	.	.	.	.
.	.	16a-\	.	16ff\	.	16ccc\	.	.	.	.	.
.	.	16a-\	.	16ff\	.	16ccc\	.	.	.	.	.
4C/	.	16a-\	.	16ff\	.	16ccc\	.	.	.	.	.
.	.	16a-\	.	16ff\	.	16ccc\	.	.	.	.	.
.	.	16a-\	.	16ff\	.	16ccc\	.	.	.	.	.
.	.	16a-\	.	16ff\	.	16ccc\	.	.	.	.	.
8F\	.	16a-\	.	16ff\	.	16ccc\	.	.	.	.	.
.	.	16a-\JJ	.	16ff\JJ	.	16ccc\JJ	.	.	.	.	.
=73	=73	=73	=73	=73	=73	=73	=73	=73	=73	=73	=73
4.A-X\	.	16a-\LL	.	16ff\LL	.	16ccc\LL	.	2.r	.	2.r	.
.	.	16a-\	.	16ff\	.	16ccc\	.	.	.	.	.
.	.	16a-\	.	16ff\	.	16ccc\	.	.	.	.	.
.	.	16a-\	.	16ff\	.	16ccc\	.	.	.	.	.
.	.	16a-\	.	16ff\	.	16ccc\	.	.	.	.	.
.	.	16a-\	.	16ff\	.	16ccc\	.	.	.	.	.
4.AA-/	.	16a-\	.	16ff\	.	16ccc\	.	.	.	.	.
.	.	16a-\	.	16ff\	.	16ccc\	.	.	.	.	.
.	.	16a-\	.	16ff\	.	16ccc\	.	.	.	.	.
.	.	16a-\	.	16ff\	.	16ccc\	.	.	.	.	.
.	.	16a-\	.	16ff\	.	16ccc\	.	.	.	.	.
.	.	16a-\JJ	.	16ff\JJ	.	16ccc\JJ	.	.	.	.	.
=74	=74	=74	=74	=74	=74	=74	=74	=74	=74	=74	=74
4.GG/	.	16c\LL	.	16gg\LL	.	16bb-X\LL	.	2.r	.	2.r	.
.	.	16c\	.	16gg\	.	16bb-\	.	.	.	.	.
.	.	16c\	.	16gg\	.	16bb-\	.	.	.	.	.
.	.	16c\	.	16gg\	.	16bb-\	.	.	.	.	.
.	.	16c\	.	16gg\	.	16bb-\	.	.	.	.	.
.	.	16c\	.	16gg\	.	16bb-\	.	.	.	.	.
4C/	.	16c\	.	16gg\	.	16bb-\	.	.	.	.	.
.	.	16c\	.	16gg\	.	16bb-\	.	.	.	.	.
.	.	16c\	.	16gg\	.	16bb-\	.	.	.	.	.
.	.	16c\	.	16gg\	.	16bb-\	.	.	.	.	.
8En\	.	16c\	.	16gg\	.	16bb-\	.	.	.	.	.
.	.	16c\JJ	.	16gg\JJ	.	16bb-\JJ	.	.	.	.	.
=75	=75	=75	=75	=75	=75	=75	=75	=75	=75	=75	=75
4.G\	.	16c\LL	.	16gg\LL	.	16bb-\LL	.	2.r	.	2.r	.
.	.	16c\	.	16gg\	.	16bb-\	.	.	.	.	.
.	.	16c\	.	16gg\	.	16bb-\	.	.	.	.	.
.	.	16c\	.	16gg\	.	16bb-\	.	.	.	.	.
.	.	16c\	.	16gg\	.	16bb-\	.	.	.	.	.
.	.	16c\	.	16gg\	.	16bb-\	.	.	.	.	.
4.GG/	.	16c\	.	16gg\	.	16bb-\	.	.	.	.	.
.	.	16c\	.	16gg\	.	16bb-\	.	.	.	.	.
.	.	16c\	.	16gg\	.	16bb-\	.	.	.	.	.
.	.	16c\	.	16gg\	.	16bb-\	.	.	.	.	.
.	.	16c\	.	16gg\	.	16bb-\	.	.	.	.	.
.	.	16c\JJ	.	16gg\JJ	.	16bb-\JJ	.	.	.	.	.
=76	=76	=76	=76	=76	=76	=76	=76	=76	=76	=76	=76
4.FF/	.	16c\LL	.	16ff\LL	.	16aa-X\LL	.	2.r	.	2.r	.
.	.	16c\	.	16ff\	.	16aa-\	.	.	.	.	.
.	.	16c\	.	16ff\	.	16aa-\	.	.	.	.	.
.	.	16c\	.	16ff\	.	16aa-\	.	.	.	.	.
.	.	16c\	.	16ff\	.	16aa-\	.	.	.	.	.
.	.	16c\	.	16ff\	.	16aa-\	.	.	.	.	.
4AA-X/	.	16c\	.	16ff\	.	16aa-\	.	.	.	.	.
.	.	16c\	.	16ff\	.	16aa-\	.	.	.	.	.
.	.	16c\	.	16ff\	.	16aa-\	.	.	.	.	.
.	.	16c\	.	16ff\	.	16aa-\	.	.	.	.	.
8C/	.	16c\	.	16ff\	.	16aa-\	.	.	.	.	.
.	.	16c\JJ	.	16ff\JJ	.	16aa-\JJ	.	.	.	.	.
=77	=77	=77	=77	=77	=77	=77	=77	=77	=77	=77	=77
4.F\	.	16c\LL	.	16ff\LL	.	16aa-\LL	.	2.r	.	2.r	.
.	.	16c\	.	16ff\	.	16aa-\	.	.	.	.	.
.	.	16c\	.	16ff\	.	16aa-\	.	.	.	.	.
.	.	16c\	.	16ff\	.	16aa-\	.	.	.	.	.
.	.	16c\	.	16ff\	.	16aa-\	.	.	.	.	.
.	.	16c\	.	16ff\	.	16aa-\	.	.	.	.	.
4.FF/	.	16c\	.	16ff\	.	16aa-\	.	.	.	.	.
.	.	16c\	.	16ff\	.	16aa-\	.	.	.	.	.
.	.	16c\	.	16ff\	.	16aa-\	.	.	.	.	.
.	.	16c\	.	16ff\	.	16aa-\	.	.	.	.	.
.	.	16c\	.	16ff\	.	16aa-\	.	.	.	.	.
.	.	16c\JJ	.	16ff\JJ	.	16aa-\JJ	.	.	.	.	.
=78	=78	=78	=78	=78	=78	=78	=78	=78	=78	=78	=78
!	!	!	!	!	!	!	!	!	!LO:DY:b:t=for	!	!LO:DY:b:t=for
4.BB-X/	.	16dn\LL	.	16b-\LL 16ff	.	16aa-\LL	.	2.B-/	f	2.b-\	f
.	.	16d\	.	16b-\ 16ff	.	16aa-\	.	.	.	.	.
.	.	16d\	.	16b-\ 16ff	.	16aa-\	.	.	.	.	.
.	.	16d\	.	16b-\ 16ff	.	16aa-\	.	.	.	.	.
.	.	16d\	.	16b-\ 16ff	.	16aa-\	.	.	.	.	.
.	.	16d\	.	16b-\ 16ff	.	16aa-\	.	.	.	.	.
4D\	.	16d\	.	16b-\ 16ff	.	16aa-\	.	.	.	.	.
.	.	16d\	.	16b-\ 16ff	.	16aa-\	.	.	.	.	.
.	.	16d\	.	16b-\ 16ff	.	16aa-\	.	.	.	.	.
.	.	16d\	.	16b-\ 16ff	.	16aa-\	.	.	.	.	.
8F\	.	16d\	.	16b-\ 16ff	.	16aa-\	.	.	.	.	.
!LO:LB:g=original	!	!LO:LB:g=original	!	!	!	!	!	!	!	!	!
.	.	16d\JJ	.	16b-\JJ 16ff	.	16aa-\JJ	.	.	.	.	.
!	!	!	!	!	!	!	!LO:LB:g=original	!	!	!	!
=79	=79	=79	=79	=79	=79	=79	=79	=79	=79	=79	=79
4.B-\	.	16d\LL	.	16b-\LL 16ff	.	16aa-\LL	.	4.B-/	.	2b-\	.
.	.	16d\	.	16b-\ 16ff	.	16aa-\	.	.	.	.	.
.	.	16d\	.	16b-\ 16ff	.	16aa-\	.	.	.	.	.
.	.	16d\	.	16b-\ 16ff	.	16aa-\	.	.	.	.	.
.	.	16d\	.	16b-\ 16ff	.	16aa-\	.	.	.	.	.
.	.	16d\	.	16b-\ 16ff	.	16aa-\	.	.	.	.	.
4.BB-/	.	16d\	.	16b-\ 16ff	.	16aa-\	.	4.r	.	.	.
!	!	!	!	!	!	!	!	!LO:LB:g=original	!	!	!
.	.	16d\	.	16b-\ 16ff	.	16aa-\	.	.	.	.	.
.	.	16d\	.	16b-\ 16ff	.	16aa-\	.	.	.	4r	.
.	.	16d\	.	16b-\ 16ff	.	16aa-\	.	.	.	.	.
.	.	16d\	.	16b-\ 16ff	.	16aa-\	.	.	.	.	.
*	*	*Xtremolo	*	*	*	*	*	*	*	*	*
.	.	16d\JJ	.	16b-\JJ 16ff	.	16aa-\JJ	.	.	.	.	.
=80	=80	=80	=80	=80	=80	=80	=80	=80	=80	=80	=80
!	!	!	!	!	!	!	!	!LO:TX:a:t=1	!	!LO:TX:a:t=1	!
4.E-\	.	4.e-X\	.	16ee-X\LL	.	16gg\LL	.	2.r	.	2.r	.
.	.	.	.	16ee-\	.	16gg\	.	.	.	.	.
.	.	.	.	16ee-\	.	16gg\	.	.	.	.	.
.	.	.	.	16ee-\	.	16gg\	.	.	.	.	.
.	.	.	.	16ee-\	.	16gg\	.	.	.	.	.
.	.	.	.	16ee-\	.	16gg\JJ	.	.	.	.	.
4.C/	.	4.c\	.	16ee-\	.	16aan\LL	.	.	.	.	.
.	.	.	.	16ee-\	.	16aa\	.	.	.	.	.
.	.	.	.	16ee-\	.	16aa\	.	.	.	.	.
.	.	.	.	16ee-\	.	16aa\	.	.	.	.	.
.	.	.	.	16ee-\	.	16aa\	.	.	.	.	.
.	.	.	.	16ee-\JJ	.	16aa\JJ	.	.	.	.	.
=81	=81	=81	=81	=81	=81	=81	=81	=81	=81	=81	=81
8BB-/L	.	4.B-/	.	16dd\LL	.	16bb-\LL	.	4.B-/	.	4.b-\	.
.	.	.	.	16dd\	.	16bb-\	.	.	.	.	.
8D/	.	.	.	16dd\	.	16bb-\	.	.	.	.	.
.	.	.	.	16dd\	.	16bb-\	.	.	.	.	.
8F/J	.	.	.	16dd\	.	16bb-\	.	.	.	.	.
.	.	.	.	16dd\JJ	.	16bb-\JJ	.	.	.	.	.
4.B-\	.	4.d\	.	16ff\LL	.	16aa-X\LL	.	4.r	.	4.r	.
.	.	.	.	16ff\	.	16aa-\	.	.	.	.	.
.	.	.	.	16ff\	.	16aa-\	.	.	.	.	.
.	.	.	.	16ff\	.	16aa-\	.	.	.	.	.
.	.	.	.	16ff\	.	16aa-\	.	.	.	.	.
.	.	.	.	16ff\JJ	.	16aa-\JJ	.	.	.	.	.
=82	=82	=82	=82	=82	=82	=82	=82	=82	=82	=82	=82
!	!	!	!	!	!	!	!	!LO:TX:a:t=1	!	!LO:TX:a:t=1	!
4.E-\	.	4.e-\	.	16ee-X\LL	.	16gg\LL	.	2.r	.	2.r	.
.	.	.	.	16ee-\	.	16gg\	.	.	.	.	.
.	.	.	.	16ee-\	.	16gg\	.	.	.	.	.
.	.	.	.	16ee-\	.	16gg\	.	.	.	.	.
.	.	.	.	16ee-\	.	16gg\	.	.	.	.	.
.	.	.	.	16ee-\	.	16gg\JJ	.	.	.	.	.
4.C/	.	4.c\	.	16ee-\	.	16aan\LL	.	.	.	.	.
.	.	.	.	16ee-\	.	16aa\	.	.	.	.	.
.	.	.	.	16ee-\	.	16aa\	.	.	.	.	.
.	.	.	.	16ee-\	.	16aa\	.	.	.	.	.
.	.	.	.	16ee-\	.	16aa\	.	.	.	.	.
*	*	*	*	*Xtremolo	*	*Xtremolo	*	*	*	*	*
.	.	.	.	16ee-\JJ	.	16aa\JJ	.	.	.	.	.
=83	=83	=83	=83	=83	=83	=83	=83	=83	=83	=83	=83
4.BB-/	.	4.B-/	.	8f/L 8dd	.	8bb-\L	.	8B-/L	.	8b-\L	.
.	.	.	.	8f/ 8dd	.	8bb-\	.	8B-/	.	8b-\	.
.	.	.	.	8f/J 8dd	.	8bb-\J	.	8B-/J	.	8b-\J	.
(16B-\LL	.	16b-\LL	.	4f/ 4dd	.	4bb-\	.	4B-/	.	4b-\	.
16c\	.	16cc\	.	.	.	.	.	.	.	.	.
16B-\	.	16b-\	.	.	.	.	.	.	.	.	.
16A-X\	.	16a-X\	.	.	.	.	.	.	.	.	.
16G\	.	16g\	.	8r	.	8r	.	8r	.	8r	.
!	!	!	!	!LO:LB:g=original	!	!	!	!	!	!	!
16F\JJ)	.	16f\JJ	.	.	.	.	.	.	.	.	.
=84	=84	=84	=84	=84	=84	=84	=84	=84	=84	=84	=84
!	!	!	!	!LO:TX:a:t=Dolce	!	!	!	!LO:TX:a:t=12	!	!LO:TX:a:t=12	!
4.E-\	pp	4.e-\	pp	8.B-/L	p	8.g/L	p	2.r	.	2.r	.
.	.	.	.	16c/K	.	16a-/K	.	.	.	.	.
.	.	.	.	8A-X/J	.	8f/J	.	.	.	.	.
4.r	.	4r	.	4G/	.	4e-/	.	.	.	.	.
.	.	8r	.	8G/	.	8e-/	.	.	.	.	.
=85	=85	=85	=85	=85	=85	=85	=85	=85	=85	=85	=85
4.EE-/	.	4E-/	.	4G/	.	4e-/	.	2.r	.	2.r	.
.	.	8r	.	8B-/	.	8f/	.	.	.	.	.
!LO:TX:t=P:problem=mixed beam	!	!	!	!	!	!	!	!	!	!	!
8E-X/L	.	8e-\L	.	4e-/	.	4g/	.	.	.	.	.
8BB-/	.	8B-\	.	.	.	.	.	.	.	.	.
8GG/J	.	8G\J	.	8r	.	8r	.	.	.	.	.
=86	=86	=86	=86	=86	=86	=86	=86	=86	=86	=86	=86
4.EE-/	.	4.E-/	.	8.g/L	.	8.b-\L	.	2.r	.	2.r	.
.	.	.	.	16a-X/K	.	16cc\K	.	.	.	.	.
.	.	.	.	8f/J	.	8a-X\J	.	.	.	.	.
4.E-\	.	4.e-\	.	8e-/L	.	8g/L	.	.	.	.	.
.	.	.	.	8e-/	.	8g/	.	.	.	.	.
.	.	.	.	8e-/J	.	8g/J	.	.	.	.	.
=87	=87	=87	=87	=87	=87	=87	=87	=87	=87	=87	=87
!LO:TX:t=P:problem=takt nieczyte;ny	!	!	!	!	!	!	!	!	!	!	!
!LO:LB:g=original	!	!	!	!	!	!	!	!	!	!	!
2.ryy	.	4.E-/	.	4e-/	.	4g/	.	2.r	.	2.r	.
.	.	.	.	8f/	.	8a-/	.	.	.	.	.
.	.	8e-|\L	.	4g/	.	4b-\	.	.	.	.	.
.	.	8g|\	.	.	.	.	.	.	.	.	.
.	.	8b-|\J	.	8r	.	8r	.	.	.	.	.
!	!	!	!	!	!	!LO:LB:g=original	!	!	!	!	!
!	!	!LO:LB:g=original	!	!	!	!	!	!	!	!	!
=88	=88	=88	=88	=88	=88	=88	=88	=88	=88	=88	=88
!	!	!	!LO:DY:b:t=for	!	!	!	!	!	!	!	!
4.E-\	fp	4.e-\	f	4g/	fp	4ee-\	fp	2.r	.	2.r	.
.	.	.	.	8a-X/	.	8cc\	.	.	.	.	.
.	.	.	.	8qqa-/	.	.	.	.	.	.	.
4EE-/	.	4.r	.	8g/L	.	8b-\L	.	.	.	.	.
.	.	.	.	8f/	.	8a-\	.	.	.	.	.
8r	.	.	.	8e-/J	.	8g\J	.	.	.	.	.
=89	=89	=89	=89	=89	=89	=89	=89	=89	=89	=89	=89
!	!	!	!LO:DY:b:t=for	!	!	!	!	!	!	!	!
4.E-\	fp	4.e-\	f	4g/	fp	4ee-\	fp	2.r	.	2.r	.
.	.	.	.	8a-/	.	8cc\	.	.	.	.	.
4EE-/	.	4r	.	8g/L	.	(8b-/L	.	.	.	.	.
.	.	.	.	8f/	.	8a-/)	.	.	.	.	.
8r	.	8r	.	8e-/J	.	8g|/J	.	.	.	.	.
=90	=90	=90	=90	=90	=90	=90	=90	=90	=90	=90	=90
4.r	.	4.r	.	4d/	.	4f/	.	2.r	.	2.r	.
.	.	.	.	8e-/	.	8g/	.	.	.	.	.
8BB-/L	.	8B-/L	p	4f/	.	4a-X/	.	.	.	.	.
8D/	.	8d/	.	.	.	.	.	.	.	.	.
8E-X/J	.	8e-/J	.	8e-/	.	8g/	.	.	.	.	.
!	!	!	!	!LO:LB:g=original	!	!	!	!	!	!	!
=91	=91	=91	=91	=91	=91	=91	=91	=91	=91	=91	=91
8BB-/L	.	8B-/L	.	8d/L	.	8f/L	.	2.r	.	2.r	.
8D/	.	8d/	.	8d/	.	8f/	.	.	.	.	.
8F/J	.	8f/J	.	8d/J	.	8f/J	.	.	.	.	.
8B-\L	.	8b-|\L	.	4d/	.	4f/	.	.	.	.	.
16B-\L	.	(16b-\L	.	.	.	.	.	.	.	.	.
16A-X\	.	16a-\	.	.	.	.	.	.	.	.	.
16G\	.	16g\	.	8r	.	8r	.	.	.	.	.
16F\JJ	.	16f\JJ)	.	.	.	.	.	.	.	.	.
=92	=92	=92	=92	=92	=92	=92	=92	=92	=92	=92	=92
4.E-\	pp	4.e-\	.	8.B-/L	pp	8g/L	pp	2.r	.	2.r	.
.	.	.	.	.	.	8a-X/	.	.	.	.	.
.	.	.	.	16c/K	.	.	.	.	.	.	.
.	.	.	.	8A-/J	.	8f/J	.	.	.	.	.
4.r	.	4.r	.	4G/	.	4e-/	.	.	.	.	.
.	.	.	.	8G/	.	8e-/	.	.	.	.	.
=93	=93	=93	=93	=93	=93	=93	=93	=93	=93	=93	=93
4.EE-/	.	4.e-\	.	4G/	.	4e-/	.	2.r	.	2.r	.
.	.	.	.	8B-/	.	8f/	.	.	.	.	.
!LO:TX:t=P:problem=mixed beam	!	!	!	!	!	!	!	!	!	!	!
8E-\L	.	4.r	.	4e-/	.	4g/	.	.	.	.	.
8BB-/	.	.	.	.	.	.	.	.	.	.	.
8GG/J	.	.	.	8r	.	8r	.	.	.	.	.
=94	=94	=94	=94	=94	=94	=94	=94	=94	=94	=94	=94
4.EE-/	.	4.e-\	.	8.g/L	.	8.b-\L	.	2.r	.	2.r	.
.	.	.	.	16a-/K	.	16cc\K	.	.	.	.	.
.	.	.	.	8f/J	.	8a-X\J	.	.	.	.	.
4.r	.	4.r	.	8e-/L	.	8g/L	.	.	.	.	.
.	.	.	.	8e-/	.	8g/	.	.	.	.	.
.	.	.	.	8e-/J	.	8g/J	.	.	.	.	.
=95	=95	=95	=95	=95	=95	=95	=95	=95	=95	=95	=95
4.E-\	.	4.e-\	.	4e-/	.	4g/	.	2.r	.	2.r	.
.	.	.	.	8f/	.	8a-/	.	.	.	.	.
!LO:TX:t=P:problem=fragment nieczytelny	!	!	!	!	!	!	!	!	!	!	!
!LO:LB:g=original	!	!	!	!	!	!	!	!	!	!	!
4ryy	.	4.r	.	4g/	.	4b-\	.	.	.	.	.
8ryy	.	.	.	8r	.	8r	.	.	.	.	.
!	!	!	!	!	!	!LO:LB:g=original	!	!	!	!	!
=96	=96	=96	=96	=96	=96	=96	=96	=96	=96	=96	=96
!	!	!	!	!	!	!	!	!	!LO:DY:a:t=for	!	!
4.E-\	fp	4.e-\	fp	4e-/	fp	4e-/ 4ee-X	.	4.E-/	f	4.e-\	.
.	.	.	.	8a-/	.	8cc\	fp	.	.	.	.
4EE-/	.	4E-/	.	8g/L	.	8b-/L	.	4r	.	4.r	.
.	.	.	.	8f/	.	8a-/	.	.	.	.	.
!	!	!LO:N:vis=4	!	!	!	!	!	!	!	!	!
8r	.	8r	.	8e-/J	.	8g/J	.	8r	.	.	.
!	!	!LO:LB:g=original	!	!	!	!	!	!	!	!	!
=97	=97	=97	=97	=97	=97	=97	=97	=97	=97	=97	=97
*	*	*tremolo	*	*	*	*	*	*	*	*	*
4.E-\	fp	8e-\L	fp	4e-/	fp	4e-/ 4ee-	fp	4.E-/	.	4.e-\	.
.	.	8e-\	.	.	.	.	.	.	.	.	.
*	*	*Xtremolo	*	*	*	*	*	*	*	*	*
.	.	8e-\J	.	8a-/	.	8cc\	.	.	.	.	.
.	.	.	.	8qqa-/	.	.	.	.	.	.	.
4EE-/	.	4E-/	.	8g/L	.	8b-/L	.	4r	.	4.r	.
!	!	!	!	!	!	!	!	!	!	!LO:LB:g=original	!
.	.	.	.	8f/	.	8a-/	.	.	.	.	.
!	!	!LO:N:vis=4	!	!	!	!	!	!	!	!	!
8r	.	8r	.	8e-/J	.	8g/J	.	8r	.	.	.
!	!	!	!	!LO:LB:g=original	!	!	!	!	!	!	!
=98	=98	=98	=98	=98	=98	=98	=98	=98	=98	=98	=98
!	!	!	!	!	!	!LO:TX:t=P:problem=mixed beam	!	!LO:TX:a:t=1	!	!LO:TX:a:t=1	!
4A-X\	.	4a-X\	.	8c/L	.	8f/L	.	2.r	.	2.r	.
.	.	.	.	8a-X/	.	8cc\	.	.	.	.	.
8r	.	8r	.	8g/J	.	8b-\J	.	.	.	.	.
.	.	.	.	8qqg/	.	.	.	.	.	.	.
4B-X\	.	4b-\	.	8f/L	.	8a-/L	.	.	.	.	.
.	.	.	.	8e-/	.	8g/	.	.	.	.	.
8BB-/	.	8B-/	.	8d/J	.	8f/J	.	.	.	.	.
=99	=99	=99	=99	=99	=99	=99	=99	=99	=99	=99	=99
!LO:TX:b:t=Cres	!	!	!	!	!	!	!	!	!	!	!
*	*	*tremolo	*	*	*	*	*	*	*	*	*
!	!	!LO:TX:b:t=Cres	!	!	!	!	!	!LO:TX:a:t=Cres	!	!LO:TX:b:t=Cres	!
8E-\L	.	8e-\L	.	8e-/L	.	8e-/L	.	2.E-/	.	2.e-\	.
!	!	!	!	!LO:TX:a:t=Cres.	!	!	!	!	!	!	!
8E-\	.	8e-\	.	8G/	.	8e-/	.	.	.	.	.
8E-\J	.	8e-\	.	8G/J	.	8e-/J	.	.	.	.	.
*tremolo	*	*	*	*	*	*	*	*	*	*	*
8E-\L	.	8e-\	.	8G/L	.	8e-/L	.	.	.	.	.
8E-\	.	8e-\	.	8G/	.	8e-/	.	.	.	.	.
8E-\J	.	8e-\J	.	8G/J	.	8e-/J	.	.	.	.	.
=100	=100	=100	=100	=100	=100	=100	=100	=100	=100	=100	=100
8E-\L	.	8e-\L	.	8A-X/L	.	8d/L	.	2.E-/	.	2.e-\	.
!	!	!	!	!	!	!	!	!LO:LB:g=original	!	!	!
8E-\	.	8e-\	.	8d/	.	8a-X/	.	.	.	.	.
8E-\	.	8e-\	.	8d/J	.	8a-/J	.	.	.	.	.
8E-\	.	8e-\	.	8d/L	.	8a-/L	.	.	.	.	.
8E-\	.	8e-\	.	8d/	.	8a-/	.	.	.	.	.
8E-\J	.	8e-\J	.	8d/J	.	8a-/J	.	.	.	.	.
=101	=101	=101	=101	=101	=101	=101	=101	=101	=101	=101	=101
!	!	!	!	!	!	!LO:TX:t=P:problem=mixed beam	!	!	!LO:DY:a	!	!
!	!LO:DY:b:t=rin for	!	!	!	!LO:DY:b:t=rin for	!	!LO:DY:b:t=rin for	!	!	!	!
!	!	!	!	!	!	!	!	!	!LO:DY:b:t=for	!	!LO:DY:b:t=for
8E-\L	rfz	8e-\L	.	8e-/L	rfz	8g\L	rfz	2.E-/	f	2.e-\	f
8E-\	.	8e-\	.	8g/	.	8ee-/	.	.	.	.	.
8E-\	.	8e-\	.	8g/J	.	8ee-/J	.	.	.	.	.
*	*	*	*	*tremolo	*	*	*	*	*	*	*
8E-\	.	8e-\	.	8g/L	.	8ee-\L	.	.	.	.	.
8E-\	.	8e-\	.	8g/	.	8ee-\	.	.	.	.	.
*	*	*	*	*Xtremolo	*	*	*	*	*	*	*
8E-\J	.	8e-\J	.	8g/J	.	8ee-\J	.	.	.	.	.
=102	=102	=102	=102	=102	=102	=102	=102	=102	=102	=102	=102
!	!	!	!	!	!LO:DY:b:t=ffor	!	!	!	!	!	!
8E-\L	.	8e-\L	.	8f/L	ff	8dd\L	.	2.E-/	.	2.e-\	.
8E-\	.	8e-\	.	8dd\	.	8aa-X\	.	.	.	.	.
8E-\	.	8e-\	.	8dd\J	.	8aa-\J	.	.	.	.	.
*	*	*	*	*tremolo	*	*	*	*	*	*	*
8E-\	.	8e-\	.	8dd\L	.	8aa-\L	.	.	.	.	.
8E-\	.	8e-\	.	8dd\	.	8aa-\	.	.	.	.	.
*Xtremolo	*	*	*	*Xtremolo	*	*	*	*	*	*	*
8E-\J	.	8e-\J	.	8dd\J	.	8aa-\J	.	.	.	.	.
!	!	!	!	!	!	!LO:DY:b:t=rin for	!	!	!	!	!
=103	=103	=103	=103	=103	=103	=103	=103	=103	=103	=103	=103
!	!	!	!	!	!	!	!LO:DY:b:t=ffor	!	!LO:DY:a	!	!
!	!	!	!	!	!	!	!	!	!LO:DY:b:t=ffor	!	!LO:DY:b:t=ffor
4EE-/	.	16e-\LL	ff	16ee-\LL	.	16gg\LL	ff	4.E-/	ff	4.e-\	ff
!	!	!	!	!	!LO:DY:b:t=fortis	!	!	!	!	!	!
.	.	16e-\	.	16gg\	ff	16eee-\	.	.	.	.	.
.	.	16e-\	.	16gg\	.	16eee-\	.	.	.	.	.
.	.	16e-\	.	16gg\	.	16eee-\	.	.	.	.	.
!	!LO:DY:b:t=ffor	!	!	!	!	!	!	!	!	!	!
16GG/LL	ff	16e-\	.	16gg\	.	16eee-\	.	.	.	.	.
16BB-/JJ	.	16e-\	.	16gg\JJ	.	16eee-\JJ	.	.	.	.	.
!LO:TX:t=P:problem=mixed beam	!	!	!	!	!	!	!	!	!	!	!
*	*	*	*	*tremolo	*	*tremolo	*	*	*	*	*
8E-/L	.	16e-\	.	16gg\LL	.	16eee-\LL	.	8r	.	8r	.
.	.	16e-\	.	16gg\	.	16eee-\	.	.	.	.	.
8EE-/	.	16e-\	.	16gg\	.	16eee-\	.	8E-/L	.	8e-\L	.
.	.	16e-\	.	16gg\	.	16eee-\	.	.	.	.	.
8E-/J	.	16e-\	.	16gg\	.	16eee-\	.	8E-/J	.	8e-\J	.
.	.	16e-\JJ	.	16gg\JJ	.	16eee-\JJ	.	.	.	.	.
!	!	!	!	!LO:LB:g=original	!	!	!	!	!	!	!
=104	=104	=104	=104	=104	=104	=104	=104	=104	=104	=104	=104
!LO:TX:t=P:problem=fragment nieczytelny	!	!	!	!	!	!	!	!	!	!	!
!LO:LB:g=original	!	!	!	!	!	!	!	!	!	!	!
4ryy	.	16e-\LL	.	16aa-X\LL	.	16ccc\LL	.	4.E-/	.	4.e-\	.
.	.	16e-\	.	16aa-\	.	16ccc\	.	.	.	.	.
.	.	16e-\	.	16aa-\	.	16ccc\	.	.	.	.	.
.	.	16e-\	.	16aa-\	.	16ccc\	.	.	.	.	.
8ryy	.	16e-\	.	16aa-\	.	16ccc\	.	.	.	.	.
.	.	16e-\	.	16aa-\	.	16ccc\	.	.	.	.	.
!LO:TX:t=P:problem=mixed beam	!	!	!	!	!	!	!	!	!	!	!
8A-\L	.	16e-\	.	16aa-\	.	16ccc\	.	8r	.	8r	.
.	.	16e-\	.	16aa-\	.	16ccc\	.	.	.	.	.
8AA-\	.	16e-\	.	16aa-\	.	16ccc\	.	8E-/L	.	8e-\L	.
.	.	16e-\	.	16aa-\	.	16ccc\	.	.	.	.	.
8A-\J	.	16e-\	.	16aa-\	.	16ccc\	.	8E-/J	.	8e-\J	.
*Xtremolo	*	*Xtremolo	*	*Xtremolo	*	*Xtremolo	*	*	*	*	*
.	.	16e-\JJ	.	16aa-\JJ	.	16ccc\JJ	.	.	.	.	.
=105	=105	=105	=105	=105	=105	=105	=105	=105	=105	=105	=105
4.B-\	.	4e-\	.	16gg\LL	.	16bb-\LL	.	4E-/	.	4e-\	.
.	.	.	.	16gg\	.	16bb-\	.	.	.	.	.
.	.	.	.	16aa-\	.	16ccc\	.	.	.	.	.
.	.	.	.	16aa-\	.	16ccc\	.	.	.	.	.
.	.	8g\	.	16gg\	.	16bb-\	.	8r	.	8r	.
.	.	.	.	16gg\JJ	.	16bb-\JJ	.	.	.	.	.
4.BB-/	.	4.b-\	.	16ff\LL	.	16aa-X\LL	.	8f\L	.	8a-|\L	.
.	.	.	.	16ff\	.	16aa-\	.	.	.	.	.
.	.	.	.	16ee-\	.	16gg\	.	8e-\	.	8g|\	.
.	.	.	.	16ee-\	.	16gg\	.	.	.	.	.
.	.	.	.	16b-\	.	16ff\	.	8B-\J	.	8f|\J	.
.	.	.	.	16b-\JJ	.	16ff\JJ	.	.	.	.	.
=106	=106	=106	=106	=106	=106	=106	=106	=106	=106	=106	=106
*	*	*tremolo	*	*tremolo	*	*tremolo	*	*	*	*	*
!	!	!	!	!	!	!	!LO:DY:b:t=ffor	!	!	!	!
4EE-/	.	16e-\LL	.	16g/LL	.	16ee-\LL	ff	4.E-/	.	4.e-\	.
.	.	16e-\	.	16g/	.	16ee-\	.	.	.	.	.
.	.	16e-\	.	16g/	.	16ee-\	.	.	.	.	.
.	.	16e-\	.	16g/	.	16ee-\	.	.	.	.	.
16GG/LL	.	16e-\	.	16g/	.	16ee-\	.	.	.	.	.
16BB-/JJ	.	16e-\	.	16g/	.	16ee-\	.	.	.	.	.
!LO:TX:t=P:problem=mixed beam	!	!	!	!	!	!	!	!	!	!	!
8E-\L	.	16e-\	.	16g/	.	16ee-\	.	8r	.	8r	.
.	.	16e-\	.	16g/	.	16ee-\	.	.	.	.	.
8EE-/	.	16e-\	.	16g/	.	16ee-\	.	8E-/L	.	8e-\L	.
.	.	16e-\	.	16g/	.	16ee-\	.	.	.	.	.
8E-\J	.	16e-\	.	16g/	.	16ee-\	.	8E-/J	.	8e-\J	.
!	!	!	!	!	!	!	!	!	!	!LO:LB:g=original	!
.	.	16e-\JJ	.	16g/JJ	.	16ee-\JJ	.	.	.	.	.
=107	=107	=107	=107	=107	=107	=107	=107	=107	=107	=107	=107
4AA-X/	.	16e-\LL	.	16a-X/LL	.	16cc\LL	.	4.E-/	.	4.e-\	.
.	.	16e-\	.	16a-/	.	16cc\	.	.	.	.	.
.	.	16e-\	.	16a-/	.	16cc\	.	.	.	.	.
.	.	16e-\	.	16a-/	.	16cc\	.	.	.	.	.
16C/LL	.	16e-\	.	16a-/	.	16cc\	.	.	.	.	.
16E-/JJ	.	16e-\	.	16a-/	.	16cc\	.	.	.	.	.
8A-\L	.	16e-\	.	16a-/	.	16cc\	.	8r	.	8r	.
.	.	16e-\	.	16a-/	.	16cc\	.	.	.	.	.
8AA-/	.	16e-\	.	16a-/	.	16cc\	.	8E-/L	.	8e-\L	.
.	.	16e-\	.	16a-/	.	16cc\	.	.	.	.	.
8A-\J	.	16e-\	.	16a-/	.	16cc\	.	8E-/J	.	8e-\J	.
!	!	!	!	!	!	!	!	!LO:LB:g=original	!	!	!
*	*	*Xtremolo	*	*Xtremolo	*	*Xtremolo	*	*	*	*	*
.	.	16e-\JJ	.	16a-/JJ	.	16cc\JJ	.	.	.	.	.
!	!	!LO:LB:g=original	!	!	!	!	!	!	!	!	!
=108	=108	=108	=108	=108	=108	=108	=108	=108	=108	=108	=108
4.B-\	.	4e-\	.	16g/LL	.	16b-\LL	.	4E-/	.	4e-\	.
.	.	.	.	16g/	.	16b-\	.	.	.	.	.
.	.	.	.	16a-/	.	16cc\	.	.	.	.	.
.	.	.	.	16a-/	.	16cc\	.	.	.	.	.
.	.	8g\	.	16g/	.	16b-\	.	8r	.	8r	.
.	.	.	.	16g/JJ	.	16b-\JJ	.	.	.	.	.
4.BB-/	.	4b-\	.	16f/LL	.	16a-/LL	.	8f\L	.	8a-\L	.
.	.	.	.	16f/	.	16a-/	.	.	.	.	.
.	.	.	.	16e-/	.	16g/	.	8e-\	.	8g\	.
.	.	.	.	16e-/	.	16g/	.	.	.	.	.
.	.	8B-/	.	16d/	.	16f/	.	8B-\J	.	8f\J	.
.	.	.	.	16d/JJ	.	16f/JJ	.	.	.	.	.
!	!	!	!	!	!	!LO:LB:g=original	!	!	!	!	!
=109	=109	=109	=109	=109	=109	=109	=109	=109	=109	=109	=109
!LO:TX:t=P:problem=mixed beam	!	!	!	!	!	!	!	!	!	!	!
8E-\L	.	8e-\L	.	8e-/L	.	8e-\L	.	8E-/L	.	8e-\L	.
8BB-/	.	8B-\	.	8G/ 8e- 8b-	.	8e-\ 8b- 8gg	.	8E-/	.	8e-\	.
8GG/J	.	8G\J	.	8G/J 8e- 8b-	.	8e-\J 8b- 8gg	.	8E-/J	.	8e-\J	.
!LO:N:vis=4.	!	!LO:N:vis=4.	!	!	!	!	!	!	!	!	!
!LO:TX:b:t=Finis	!	!LO:TX:b:t=Finis	!	!	!	!	!	!	!	!	!
4EE-/	.	4E-/	.	4G/ 4e- 4b-	.	4e-\ 4b- 4gg	.	4E-/	.	4e-\	.
!	!	!	!	!LO:TX:b:t=Finis	!	!LO:TX:a:t=Finis	!	!LO:TX:a:t=Finis	!	!LO:TX:a:t=Finis	!
8ryy	.	8ryy	.	8r	.	8r	.	8r	.	8r	.
==	==	==	==	==	==	==	==	==	==	==	==
*-	*-	*-	*-	*-	*-	*-	*-	*-	*-	*-	*-
!!!RDF**kern: | = vertical stroke
!!!RDF**kern: > = above
!!!RDF**kern: < = below
!!!system-decoration: [(s1,s2)][(s3,s4,s5,s6)]
!!!ENC: Krzysztof Stępień
!!!END: 2020-09-14
!!!ENC: Julita Ruszuk
!!!END: 2022-01-27
